<?xml version="1.0" encoding="UTF-8"?>
<map version="1.8" tiledversion="1.8.5" orientation="isometric" renderorder="right-down" width="32" height="32" tilewidth="64" tileheight="32" infinite="0" nextlayerid="9" nextobjectid="45">
 <properties>
  <property name="Background" value="custom"/>
  <property name="Background Animation" value="/server/assets/bg/bg_garden.animation"/>
  <property name="Background Texture" value="/server/assets/bg/bg_garden.png"/>
  <property name="Name" value="Garden"/>
  <property name="Song" value="/server/assets/music/"/>
 </properties>
 <tileset firstgid="1" source="../../../../Desktop/games/Open Netbattle/Release/resources/ow/tiles/Sakura.tsx"/>
 <tileset firstgid="46" source="../../../../Desktop/games/Open Netbattle/Release/resources/ow/tiles/Sakura small.tsx"/>
 <tileset firstgid="48" source="../../../../Desktop/games/Open Netbattle/Release/resources/ow/tiles/Sakura Tree.tsx"/>
 <tileset firstgid="49" source="../assets/tiles/Digi DD teleports 2.tsx"/>
 <tileset firstgid="53" source="../assets/tiles/Sakura Teleport 1.tsx"/>
 <tileset firstgid="57" source="../assets/tiles/Sewage station base.tsx"/>
 <tileset firstgid="63" source="../assets/tiles/Sewage station upper layer 1.tsx"/>
 <tileset firstgid="72" source="../assets/tiles/Water station base.tsx"/>
 <tileset firstgid="78" source="../assets/tiles/Water station upper layer 1.tsx"/>
 <layer id="1" name="Tile Layer 1" width="32" height="32">
  <data encoding="csv">
0,0,0,0,0,0,0,0,0,0,0,0,0,0,0,0,0,0,0,0,0,0,0,0,0,0,0,0,0,0,0,0,
0,0,0,0,0,0,0,0,0,0,0,0,0,0,0,0,0,0,0,0,0,0,0,0,0,0,0,0,0,0,0,0,
0,0,0,0,0,0,0,0,0,0,0,0,0,0,0,0,0,0,0,0,0,0,0,0,0,0,0,0,0,0,0,0,
0,1,3,2,2,4,1,0,0,0,0,0,0,0,0,0,41,0,0,0,0,0,0,0,0,0,0,0,0,0,0,0,
0,0,0,0,0,0,2147483651,0,0,0,0,0,0,0,0,7,2147483654,2147483659,0,0,0,0,0,0,0,0,0,0,0,0,0,0,
0,0,0,0,0,0,2147483650,0,0,0,0,0,0,0,0,6,12,2147483664,0,0,0,0,0,0,0,0,0,0,0,0,0,0,
0,0,0,0,0,0,2147483650,0,0,0,0,0,0,0,0,11,16,17,0,0,0,0,0,0,0,0,0,0,0,0,0,0,
0,0,0,0,0,0,2147483650,0,0,0,0,0,0,0,0,0,0,0,0,0,0,0,0,0,0,0,0,0,0,0,0,0,
0,0,0,0,0,0,2147483650,0,0,0,0,0,0,0,0,0,0,0,0,0,0,0,0,0,0,0,0,0,0,0,0,0,
0,0,0,0,0,0,2147483650,0,0,0,0,0,0,0,0,0,0,0,0,0,0,0,0,0,0,0,0,0,0,0,0,0,
0,0,0,0,0,0,2147483650,0,0,0,0,0,0,0,0,0,0,0,0,0,0,0,0,0,0,0,7,2147483654,2147483654,2147483659,0,0,
0,0,0,0,0,0,2147483650,0,0,0,0,0,0,0,0,0,0,0,0,0,0,0,1,3,2,2,2147483656,12,12,2147483664,0,0,
0,0,0,0,0,0,2147483652,0,0,0,0,0,0,0,0,0,0,0,0,0,0,0,2147483651,0,0,0,11,16,16,17,0,0,
0,0,1,3,2,4,1,3,2,4,1,0,0,0,0,0,41,0,0,0,0,0,2147483650,0,0,0,0,0,0,0,0,0,
0,0,2147483651,0,0,0,2147483653,0,0,0,2147483651,0,0,0,0,0,1,0,0,0,0,0,2147483650,0,0,0,0,0,0,0,0,0,
0,0,2147483650,0,0,0,1,0,0,0,2147483650,0,0,0,0,0,2147483651,0,0,0,0,0,2147483650,0,0,0,0,0,0,0,0,0,
0,0,2147483652,0,1,0,0,0,1,0,2147483652,0,0,0,0,10,15,2147483662,0,0,0,0,2147483652,0,0,0,0,0,0,0,0,0,
0,0,1,0,0,0,0,0,0,0,1,2,2,2,2,2147483663,12,2147483667,2,2,2,2,1,3,4,1,0,0,0,0,0,0,
0,0,2147483651,0,1,0,0,0,1,0,2147483651,0,0,0,0,14,19,20,0,0,0,0,2147483651,0,0,0,0,0,0,0,0,0,
0,0,2147483650,0,0,0,1,0,0,0,2147483650,0,0,0,0,0,2147483650,0,0,0,0,0,2147483650,0,0,0,0,0,0,0,0,0,
0,0,2147483652,0,0,0,2147483653,0,0,0,2147483652,0,0,0,0,0,2147483650,0,0,0,0,0,2147483650,0,0,0,0,0,0,0,0,0,
0,0,1,3,2,4,1,3,2,4,1,0,0,0,0,0,2147483650,0,0,0,0,0,2147483650,0,0,0,0,0,0,0,0,0,
0,0,0,0,0,0,2147483651,0,0,0,0,0,0,0,0,0,2147483652,0,0,0,0,0,2147483650,0,0,0,0,0,0,0,0,0,
0,0,0,0,0,0,2147483650,0,0,0,0,0,0,0,0,0,1,0,0,0,0,0,2147483652,0,0,10,2147483657,2147483662,0,0,0,0,
0,0,0,0,0,0,2147483650,0,0,0,0,0,0,0,0,0,2147483651,0,0,0,0,0,1,3,2,2147483663,12,2147483667,0,0,0,0,
0,0,0,0,0,0,2147483650,0,0,0,0,0,0,0,0,0,2147483650,0,0,0,0,0,0,0,0,14,19,20,0,0,0,0,
0,0,0,0,0,0,2147483650,0,0,0,0,0,0,0,0,0,2147483650,0,0,0,0,0,0,0,0,0,0,0,0,0,0,0,
0,0,0,0,0,0,2147483650,0,0,0,0,0,0,0,0,0,2147483650,0,0,0,0,0,0,0,0,0,0,0,0,0,0,0,
0,0,0,0,0,10,2147483657,2147483662,0,0,0,0,0,0,0,7,8,2147483659,0,0,0,0,0,0,0,0,0,0,0,0,0,0,
0,0,0,0,0,9,12,2147483667,0,0,0,0,0,0,0,6,12,2147483664,0,0,0,0,0,0,0,0,0,0,0,0,0,0,
0,0,0,0,0,14,19,20,0,0,0,0,0,0,0,11,16,17,0,0,0,0,0,0,0,0,0,0,0,0,0,0,
0,0,0,0,0,0,0,0,0,0,0,0,0,0,0,0,0,0,0,0,0,0,0,0,0,0,0,0,0,0,0,0
</data>
 </layer>
 <objectgroup id="2" name="Object Layer 1">
  <object id="2" name="HP Warp" type="Home Warp" gid="53" x="512" y="928" width="64" height="32">
   <properties>
    <property name="Direction" value="Up Right"/>
   </properties>
  </object>
  <object id="3" gid="47" x="160" y="896" width="64" height="96"/>
  <object id="4" gid="47" x="224" y="896" width="64" height="96"/>
  <object id="5" gid="47" x="224" y="960" width="64" height="96"/>
  <object id="6" gid="47" x="160" y="960" width="64" height="96"/>
  <object id="10" gid="46" x="608" y="672" width="64" height="96"/>
  <object id="11" gid="46" x="608" y="736" width="64" height="96"/>
  <object id="12" gid="46" x="608" y="800" width="64" height="96"/>
  <object id="13" gid="46" x="608" y="864" width="64" height="96"/>
  <object id="14" gid="46" x="640" y="928" width="64" height="96"/>
  <object id="15" gid="46" x="640" y="992" width="64" height="96"/>
  <object id="16" gid="46" x="480" y="672" width="64" height="96"/>
  <object id="17" gid="46" x="480" y="736" width="64" height="96"/>
  <object id="18" gid="46" x="480" y="800" width="64" height="96"/>
  <object id="19" gid="46" x="480" y="864" width="64" height="96"/>
  <object id="20" gid="46" x="448" y="928" width="64" height="96"/>
  <object id="21" gid="46" x="448" y="992" width="64" height="96"/>
  <object id="22" gid="46" x="224" y="576" width="64" height="96"/>
  <object id="23" gid="48" x="504" y="152" width="192" height="200"/>
  <object id="33" gid="46" x="160" y="384" width="64" height="96"/>
  <object id="34" gid="46" x="256" y="384" width="64" height="96"/>
  <object id="41" gid="72" x="864" y="336" width="128" height="64"/>
  <object id="42" gid="78" x="872" y="360" width="64" height="80"/>
  <object id="44" gid="79" x="944" y="384" width="64" height="80"/>
 </objectgroup>
 <layer id="3" name="Tile Layer 2" width="32" height="32" offsetx="0" offsety="-16">
  <data encoding="csv">
0,0,0,0,0,0,0,0,0,0,0,0,0,0,0,0,0,0,0,0,0,0,0,0,0,0,0,0,0,0,0,0,
0,0,0,0,0,0,0,0,0,0,0,0,0,0,0,0,0,0,0,0,0,0,0,0,0,0,0,0,0,0,0,0,
0,0,0,0,0,0,0,0,0,0,0,0,0,0,0,0,42,0,0,0,0,0,0,0,0,0,0,0,0,0,0,0,
0,0,0,0,0,0,0,0,0,0,0,0,0,0,0,0,0,0,0,0,0,0,0,0,0,0,0,0,0,0,0,0,
0,0,0,0,0,0,0,0,0,0,0,0,0,0,0,0,0,0,0,0,0,0,0,0,0,0,0,0,0,0,0,0,
0,0,0,0,0,0,0,0,0,0,0,0,0,0,0,0,0,0,0,0,0,0,0,0,0,0,0,0,0,0,0,0,
0,0,0,0,0,0,0,0,0,0,0,0,0,0,0,0,0,0,0,0,0,0,0,0,0,0,0,0,0,0,0,0,
0,0,0,0,0,0,0,0,0,0,0,0,0,0,0,0,0,0,0,0,0,0,0,0,0,0,0,0,0,0,0,0,
0,0,0,0,0,0,0,0,0,0,0,0,0,0,0,0,0,0,0,0,0,0,0,0,0,0,0,0,0,0,0,0,
0,0,0,0,0,0,0,0,0,0,0,0,0,0,0,0,0,0,0,0,0,0,0,0,0,0,0,0,0,0,0,0,
0,0,0,0,0,0,0,0,0,0,0,0,0,0,0,0,0,0,0,0,0,0,0,0,0,0,0,0,0,0,0,0,
0,0,0,0,0,0,0,0,0,0,0,0,0,0,0,0,0,0,0,0,0,0,0,0,0,0,0,0,0,0,0,0,
0,0,0,0,0,0,0,0,0,0,0,0,0,0,0,0,42,0,0,0,0,0,0,0,0,0,0,0,0,0,0,0,
0,0,0,0,0,0,0,0,0,0,0,0,0,0,0,0,0,0,0,0,0,0,0,0,0,0,0,0,0,0,0,0,
0,0,0,0,0,0,0,0,0,0,0,0,0,0,0,0,0,0,0,0,0,0,0,0,0,0,0,0,0,0,0,0,
0,0,0,0,0,0,0,0,0,0,0,0,0,0,0,0,0,0,0,0,0,0,0,0,0,0,0,0,0,0,0,0,
0,0,0,0,0,0,0,0,0,0,0,0,0,0,0,0,0,0,0,0,0,0,0,0,0,0,0,0,0,0,0,0,
0,0,0,0,0,0,0,0,0,0,0,0,0,0,0,0,0,0,0,0,0,0,0,0,0,0,0,0,0,0,0,0,
0,0,0,0,0,0,0,0,0,0,0,0,0,0,0,0,0,0,0,0,0,0,0,0,0,0,0,0,0,0,0,0,
0,0,0,0,0,0,0,0,0,0,0,0,0,0,0,0,0,0,0,0,0,0,0,0,0,0,0,0,0,0,0,0,
0,0,0,0,0,0,0,0,0,0,0,0,0,0,0,0,0,0,0,0,0,0,0,0,0,0,0,0,0,0,0,0,
0,0,0,0,0,0,0,0,0,0,0,0,0,0,0,0,0,0,0,0,0,0,0,0,0,0,0,0,0,0,0,0,
0,0,0,0,0,0,0,0,0,0,0,0,0,0,0,0,0,0,0,0,0,0,0,0,0,0,0,0,0,0,0,0,
0,0,0,0,0,0,0,0,0,0,0,0,0,0,0,0,0,0,0,0,0,0,0,0,0,0,0,0,0,0,0,0,
0,0,0,0,0,0,0,0,0,0,0,0,0,0,0,0,0,0,0,0,0,0,0,0,0,0,0,0,0,0,0,0,
0,0,0,0,0,0,0,0,0,0,0,0,0,0,0,0,0,0,0,0,0,0,0,0,0,0,0,0,0,0,0,0,
0,0,0,0,0,0,0,0,0,0,0,0,0,0,0,0,0,0,0,0,0,0,0,0,0,0,0,0,0,0,0,0,
0,0,0,0,0,0,0,0,0,0,0,0,0,0,0,0,0,0,0,0,0,0,0,0,0,0,0,0,0,0,0,0,
0,0,0,0,0,0,0,0,0,0,0,0,0,0,0,0,0,0,0,0,0,0,0,0,0,0,0,0,0,0,0,0,
0,0,0,0,0,0,0,0,0,0,0,0,0,0,0,0,0,0,0,0,0,0,0,0,0,0,0,0,0,0,0,0,
0,0,0,0,0,0,0,0,0,0,0,0,0,0,0,0,0,0,0,0,0,0,0,0,0,0,0,0,0,0,0,0,
0,0,0,0,0,0,0,0,0,0,0,0,0,0,0,0,0,0,0,0,0,0,0,0,0,0,0,0,0,0,0,0
</data>
 </layer>
 <objectgroup id="7" name="Object Layer 2" offsetx="0" offsety="-16"/>
 <layer id="4" name="Tile Layer 3" width="32" height="32" offsetx="0" offsety="-32">
  <data encoding="csv">
0,0,0,0,0,0,0,0,0,0,0,0,0,0,0,0,0,0,0,0,0,0,0,0,0,0,0,0,0,0,0,0,
0,0,0,0,0,0,0,0,0,0,0,0,21,23,22,24,21,23,22,24,21,0,0,0,0,0,0,0,0,0,0,0,
0,0,0,0,0,0,0,0,0,0,0,0,2147483671,0,0,0,43,0,0,0,2147483671,0,0,0,0,0,0,0,0,0,0,0,
0,0,0,0,0,0,0,0,0,0,0,0,2147483670,0,0,0,0,0,0,0,2147483670,0,0,0,0,0,0,0,0,0,0,0,
0,0,0,0,0,0,0,0,0,0,0,0,2147483672,0,0,0,0,0,0,0,2147483672,0,0,0,0,0,0,0,0,0,0,0,
0,0,0,0,0,0,0,0,0,0,0,0,21,0,0,0,0,0,0,0,21,0,0,0,0,0,0,0,0,0,0,0,
0,0,0,0,0,0,0,0,0,0,0,0,2147483671,0,0,0,0,0,0,0,2147483671,0,0,0,0,0,0,0,0,0,0,0,
0,0,0,0,0,0,0,0,0,0,0,0,2147483670,0,0,0,0,0,0,0,2147483670,0,0,0,0,0,0,0,0,0,0,0,
0,0,0,0,0,0,0,0,0,0,0,0,2147483672,0,0,0,0,0,0,0,2147483672,0,0,0,0,0,0,0,0,0,0,0,
0,0,0,0,0,0,0,0,0,0,0,0,21,23,22,24,21,23,22,24,21,0,0,0,0,0,0,0,0,0,0,0,
0,0,0,0,0,0,0,0,0,0,0,0,0,0,0,0,2147483670,0,0,0,0,0,0,0,0,0,0,0,0,0,0,0,
0,0,0,0,0,0,0,0,0,0,0,0,0,0,0,0,21,0,0,0,0,0,0,0,0,0,0,0,0,0,0,0,
0,0,0,0,0,0,0,0,0,0,0,0,0,0,0,0,43,0,0,0,0,0,0,0,0,0,0,0,0,0,0,0,
0,0,0,0,0,0,0,0,0,0,0,0,0,0,0,0,0,0,0,0,0,0,0,0,0,0,0,0,0,0,0,0,
0,0,0,0,0,0,0,0,0,0,0,0,0,0,0,0,0,0,0,0,0,0,0,0,0,0,0,0,0,0,0,0,
0,0,0,0,0,0,0,0,0,0,0,0,0,0,0,0,0,0,0,0,0,0,0,0,0,0,0,0,0,0,0,0,
0,0,0,0,0,0,0,0,0,0,0,0,0,0,0,0,0,0,0,0,0,0,0,0,0,0,0,0,0,0,0,0,
0,0,0,0,0,0,0,0,0,0,0,0,0,0,0,0,0,0,0,0,0,0,0,0,0,0,0,0,0,0,0,0,
0,0,0,0,0,0,0,0,0,0,0,0,0,0,0,0,0,0,0,0,0,0,0,0,0,0,0,0,0,0,0,0,
0,0,0,0,0,0,0,0,0,0,0,0,0,0,0,0,0,0,0,0,0,0,0,0,0,0,0,0,0,0,0,0,
0,0,0,0,0,0,0,0,0,0,0,0,0,0,0,0,0,0,0,0,0,0,0,0,0,0,0,0,0,0,0,0,
0,0,0,0,0,0,0,0,0,0,0,0,0,0,0,0,0,0,0,0,0,0,0,0,0,0,0,0,0,0,0,0,
0,0,0,0,0,0,0,0,0,0,0,0,0,0,0,0,0,0,0,0,0,0,0,0,0,0,0,0,0,0,0,0,
0,0,0,0,0,0,0,0,0,0,0,0,0,0,0,0,0,0,0,0,0,0,0,0,0,0,0,0,0,0,0,0,
0,0,0,0,0,0,0,0,0,0,0,0,0,0,0,0,0,0,0,0,0,0,0,0,0,0,0,0,0,0,0,0,
0,0,0,0,0,0,0,0,0,0,0,0,0,0,0,0,0,0,0,0,0,0,0,0,0,0,0,0,0,0,0,0,
0,0,0,0,0,0,0,0,0,0,0,0,0,0,0,0,0,0,0,0,0,0,0,0,0,0,0,0,0,0,0,0,
0,0,0,0,0,0,0,0,0,0,0,0,0,0,0,0,0,0,0,0,0,0,0,0,0,0,0,0,0,0,0,0,
0,0,0,0,0,0,0,0,0,0,0,0,0,0,0,0,0,0,0,0,0,0,0,0,0,0,0,0,0,0,0,0,
0,0,0,0,0,0,0,0,0,0,0,0,0,0,0,0,0,0,0,0,0,0,0,0,0,0,0,0,0,0,0,0,
0,0,0,0,0,0,0,0,0,0,0,0,0,0,0,0,0,0,0,0,0,0,0,0,0,0,0,0,0,0,0,0,
0,0,0,0,0,0,0,0,0,0,0,0,0,0,0,0,0,0,0,0,0,0,0,0,0,0,0,0,0,0,0,0
</data>
 </layer>
 <objectgroup id="8" name="Object Layer 3" offsetx="0" offsety="-32">
  <object id="24" gid="48" x="536" y="184" width="192" height="200"/>
 </objectgroup>
</map>
