<?xml version="1.0" encoding="UTF-8"?>
<map version="1.8" tiledversion="1.8.5" orientation="isometric" renderorder="right-down" width="32" height="32" tilewidth="64" tileheight="32" infinite="0" nextlayerid="11" nextobjectid="64">
 <properties>
  <property name="Background" value="custom"/>
  <property name="Background Animation" value="/server/assets/bg/bg.animation"/>
  <property name="Background Texture" value="/server/assets/bg/bg.png"/>
  <property name="Background Vel X" type="float" value="0.64"/>
  <property name="Background Vel Y" type="float" value="0.32"/>
  <property name="Name" value="ONB Plaza"/>
  <property name="Song" value="/server/assets/music/plaza.ogg"/>
 </properties>
 <tileset firstgid="1" source="../assets/tiles/Cyberworld new.tsx"/>
 <tileset firstgid="49" source="../assets/tiles/Cyberworld arrows.tsx"/>
 <tileset firstgid="73" source="../assets/tiles/DigimonWorldGatewall.tsx"/>
 <tileset firstgid="74" source="../assets/tiles/EXE2 billboard.tsx"/>
 <tileset firstgid="82" source="../assets/tiles/Digi DD teleports 2.tsx"/>
 <tileset firstgid="86" source="../assets/tiles/Digimon farm pylon.tsx"/>
 <tileset firstgid="95" source="../assets/tiles/BBS.tsx"/>
 <tileset firstgid="96" source="../assets/tiles/Net doors 2.tsx"/>
 <tileset firstgid="108" source="../assets/tiles/Net doors.tsx"/>
 <tileset firstgid="120" source="../assets/tiles/obstacle bandages.tsx"/>
 <tileset firstgid="124" source="../assets/tiles/tree.tsx"/>
 <tileset firstgid="132" source="../assets/tiles/Digi DD teleports.tsx"/>
 <tileset firstgid="144" source="../assets/tiles/obstacle stump.tsx"/>
 <tileset firstgid="145" source="../assets/tiles/Junkpiles.tsx"/>
 <tileset firstgid="147" source="../assets/tiles/DigimonWorldDoodad1.tsx"/>
 <tileset firstgid="151" source="../assets/tiles/Darkmoon terminal.tsx"/>
 <tileset firstgid="153" source="../assets/tiles/metto busy.tsx"/>
 <layer id="1" name="Tile Layer 1" width="32" height="32" offsetx="0" offsety="64">
  <data encoding="csv">
0,0,0,0,0,0,0,0,0,0,0,0,0,0,0,0,0,0,0,0,0,0,0,0,0,0,0,0,0,0,0,0,
0,29,17,29,0,0,0,0,0,0,0,0,0,0,0,0,0,0,0,0,0,0,0,0,0,0,0,0,0,0,0,0,
0,17,17,17,2147483672,2147483671,2147483671,2147483671,2147483671,2147483671,2147483671,2147483670,17,0,0,0,0,0,0,0,0,0,0,0,0,0,0,0,0,0,0,0,
0,29,17,29,0,0,0,0,0,0,0,0,21,0,0,0,0,0,0,0,0,0,0,0,0,0,0,0,0,0,0,0,
0,0,21,0,0,0,0,0,0,0,0,0,17,2147483672,2147483671,2147483671,2147483670,17,0,0,0,0,0,0,0,0,0,0,0,0,0,0,
0,29,17,29,0,0,0,0,0,0,0,0,0,0,0,0,0,24,0,0,0,0,0,0,0,0,0,0,0,0,0,0,
53,17,17,17,0,0,0,0,0,0,0,0,0,0,0,0,0,23,0,0,0,0,0,0,0,0,0,0,29,17,29,0,
0,29,17,29,0,0,0,0,0,0,0,0,0,0,0,0,14,22,0,0,0,0,0,0,0,0,0,14,17,17,17,0,
0,0,0,0,0,0,0,0,0,0,0,0,0,0,0,0,0,0,0,0,0,0,0,0,0,0,0,0,29,17,29,0,
0,0,0,0,0,0,0,0,0,0,0,0,0,0,0,0,0,0,0,0,0,29,17,17,29,0,0,0,0,17,0,0,
0,0,0,0,0,0,0,0,0,0,0,0,0,0,0,0,0,0,0,0,0,17,17,17,17,17,17,17,17,17,0,0,
0,0,0,0,0,0,0,0,0,0,0,0,0,0,0,0,0,0,0,0,0,29,17,17,29,0,0,0,0,0,0,0,
0,0,0,0,0,0,0,0,0,0,0,0,0,0,0,0,0,0,0,0,0,0,0,0,0,0,0,0,0,0,0,0,
0,0,0,0,0,0,0,0,0,0,0,0,0,0,0,0,0,0,0,0,0,0,0,0,0,0,0,0,0,0,0,0,
0,0,0,0,0,0,0,0,0,0,0,0,0,0,0,0,0,0,0,0,0,0,0,0,0,0,0,0,0,0,0,0,
0,0,0,0,0,0,0,0,0,0,0,0,0,0,0,0,0,0,0,0,0,0,0,0,0,0,0,0,0,0,0,0,
0,0,0,0,0,0,0,0,0,0,0,0,0,0,0,0,0,0,0,0,0,0,0,0,0,0,0,0,0,0,0,0,
0,0,0,0,0,0,0,0,0,0,0,0,0,0,0,0,0,0,0,0,0,0,0,29,17,17,17,17,17,17,17,29,
0,0,0,0,0,0,0,0,0,0,0,0,0,0,0,0,0,0,0,0,0,0,14,17,47,46,46,46,46,46,46,17,
0,0,0,0,0,0,0,0,0,0,0,0,0,0,0,0,0,0,0,0,0,0,0,17,48,29,17,17,17,29,48,17,
0,0,0,0,0,0,0,0,0,0,0,0,0,0,0,0,0,0,0,0,0,0,0,17,48,17,17,17,17,17,48,17,
0,0,0,0,0,0,0,0,0,0,0,0,0,0,0,0,0,0,0,0,0,0,0,17,17,17,17,29,17,17,48,17,
2147483662,0,0,0,0,0,0,0,0,0,0,0,0,0,0,0,0,0,0,0,0,0,0,17,47,17,17,17,17,17,48,17,
17,0,0,0,0,0,0,0,0,0,0,0,0,0,0,0,0,0,0,0,0,0,0,17,48,29,17,17,17,29,48,17,
24,0,0,0,0,0,0,0,0,0,0,0,0,0,0,0,0,29,17,29,0,0,0,17,48,46,46,46,46,46,45,17,
23,0,0,0,0,0,0,0,0,0,0,0,0,0,0,0,0,17,17,17,2147483672,2147483671,2147483670,17,17,17,17,17,17,17,17,17,
23,0,29,17,17,17,29,0,0,0,0,0,0,0,0,0,0,29,17,29,0,0,0,17,47,46,46,46,46,46,46,17,
22,0,17,17,17,17,17,0,0,0,0,0,0,0,0,0,0,0,0,0,0,0,0,17,48,45,45,45,45,45,45,17,
17,21,17,17,17,17,17,2147483672,2147483670,17,0,0,0,0,0,0,0,0,0,0,0,0,0,17,48,45,45,45,45,45,45,17,
0,0,17,17,17,17,17,0,0,24,0,0,0,0,0,0,0,0,0,0,0,0,0,17,48,45,45,45,45,45,45,17,
0,0,29,17,17,17,29,0,0,22,0,0,0,0,0,0,0,0,0,0,0,0,0,17,48,45,45,45,45,45,45,17,
0,0,0,0,0,0,0,0,0,2147483702,0,0,0,0,0,0,0,0,0,0,0,0,0,29,17,17,17,17,17,17,17,29
</data>
 </layer>
 <objectgroup id="2" name="Object Layer 1" offsetx="0" offsety="64">
  <object id="21" name="Developer Navi" type="NPC" x="944" y="208">
   <properties>
    <property name="Asset Name" value="normal-navi-bn4_green"/>
    <property name="Dialogue Type" value="first"/>
    <property name="Direction" value="Down Left"/>
    <property name="Text 1" value="And then, this whole place changed for the better. Are you lost?"/>
    <property name="Wait Time" type="int" value="3"/>
   </properties>
   <point/>
  </object>
  <object id="22" name="Maintenance Official" type="NPC" x="944" y="240">
   <properties>
    <property name="Asset Name" value="normal-navi-bn4_green"/>
    <property name="Dialogue Type" value="first"/>
    <property name="Direction" value="Up Right"/>
    <property name="Text 1" value="On the bright side, the map is smaller, and there's less wandering."/>
    <property name="Wait Time" type="int" value="3"/>
   </properties>
   <point/>
  </object>
  <object id="31" gid="89" x="144" y="912" width="32" height="64">
   <properties>
    <property name="Flavor" value="A Light Digital World Emitter. In case something happens in the real world, this emitter will preserve Cyberworld."/>
   </properties>
  </object>
  <object id="32" gid="92" x="880" y="688" width="32" height="64">
   <properties>
    <property name="Flavor" value="A Dark Digital World Emitter. In case something happens in the real world, this emitter will preserve Cyberworld."/>
   </properties>
  </object>
  <object id="33" name="Punk navi" type="NPC" x="856" y="688">
   <properties>
    <property name="Asset Name" value="heel-navi-exe4_purple"/>
    <property name="Dialogue Type" value="first"/>
    <property name="Direction" value="Down Right"/>
    <property name="Text 1" value="I still hold to the theory that there is treasure buried under the mucky water."/>
    <property name="Wait Time" type="int" value="3"/>
   </properties>
   <point/>
  </object>
  <object id="34" gid="73" x="64" y="16" width="64" height="64">
   <properties>
    <property name="Flavor" value="A data bloat has coagulated this path. It needs to be cleansed by an Official. Damaging it does virtually nothing."/>
   </properties>
  </object>
  <object id="35" gid="144" x="48" y="112" width="64" height="64">
   <properties>
    <property name="Flavor" value="Cyber stump. It decorates the area."/>
   </properties>
  </object>
  <object id="36" gid="144" x="112" y="112" width="64" height="64">
   <properties>
    <property name="Flavor" value="Just a cyber stump doing its job."/>
   </properties>
  </object>
  <object id="37" gid="128" x="240" y="880" width="64" height="64">
   <properties>
    <property name="Flavor" value="A deep pine tree. Its coloration is off."/>
   </properties>
  </object>
  <object id="38" gid="128" x="240" y="944" width="64" height="64">
   <properties>
    <property name="Flavor" value="A deep pine tree. Its coloration is off."/>
   </properties>
  </object>
  <object id="39" gid="146" x="720" y="320" width="64" height="64">
   <properties>
    <property name="Flavor" value="This garbage looks like nothing... it's as if it was created to be junk."/>
   </properties>
  </object>
  <object id="40" gid="145" x="720" y="352" width="64" height="64">
   <properties>
    <property name="Flavor" value="You hear a mouse somewhere in there for some reason."/>
   </properties>
  </object>
  <object id="41" gid="146" x="688" y="352" width="64" height="64">
   <properties>
    <property name="Flavor" value="Angry eyes stare at you from beneath the rubble."/>
   </properties>
  </object>
  <object id="42" gid="145" x="688" y="320" width="64" height="64">
   <properties>
    <property name="Flavor" value="You can see several viruses gluttonously eating at some of the garbage."/>
   </properties>
  </object>
  <object id="47" name="Tech Navi" type="NPC" x="144" y="848">
   <properties>
    <property name="Asset Name" value="female-navi-exe5_purple"/>
    <property name="Dialogue Type" value="first"/>
    <property name="Direction" value="Down Left"/>
    <property name="Text 1" value="I got lost, so I jacked out. But then, I had to come all the way back here again..."/>
    <property name="Wait Time" type="int" value="3"/>
   </properties>
   <point/>
  </object>
  <object id="48" name="To Indus" type="Radius Warp" x="0" y="208">
   <properties>
    <property name="Activation Radius" type="float" value="0.6"/>
    <property name="Arrival Animation" value="arrow_up_left_in"/>
    <property name="Leave Animation" value="arrow_up_left_out"/>
    <property name="Target Area" value="Industrial_hub"/>
    <property name="Target Object" value="1"/>
   </properties>
   <point/>
  </object>
  <object id="49" name="Bored Navi" type="NPC" x="120" y="168">
   <properties>
    <property name="Asset Name" value="official-navi-exe4_orange"/>
    <property name="Dialogue Type" value="first"/>
    <property name="Direction" value="Up Left"/>
    <property name="Text 1" value="Welp, looks like the glitchy console finally got canned. (YES! I did it!)"/>
    <property name="Wait Time" type="int" value="3"/>
   </properties>
   <point/>
  </object>
  <object id="50" name="Maintenance Official" type="NPC" x="600" y="776">
   <properties>
    <property name="Asset Name" value="punk-navi-exe6_navy"/>
    <property name="Dialogue Type" value="first"/>
    <property name="Direction" value="Up Right"/>
    <property name="Text 1" value="I've been working on this console for months, and I'm come to the conclusion that I've wasted my time, it keeps breaking down again."/>
    <property name="Wait Time" type="int" value="3"/>
   </properties>
   <point/>
  </object>
  <object id="56" gid="147" x="624" y="848" width="32" height="32">
   <properties>
    <property name="Flavor" value="A digi-server humming with power. You can't help but wonder where it gets this power from."/>
   </properties>
  </object>
  <object id="57" gid="147" x="624" y="784" width="32" height="32">
   <properties>
    <property name="Flavor" value="A digi-server powering the flow of the water."/>
   </properties>
  </object>
  <object id="58" gid="151" x="544" y="816" width="64" height="64">
   <properties>
    <property name="Flavor" value="A console with no immediate apparent purpose. It's still fun to press the buttons."/>
   </properties>
  </object>
  <object id="59" name="Reasonable Scientist" type="NPC" x="144" y="944">
   <properties>
    <property name="Asset Name" value="normal-navi-bn4_brown"/>
    <property name="Dialogue Type" value="first"/>
    <property name="Direction" value="Up Right"/>
    <property name="Text 1" value="I'm still baffled about these emitter things. They serve no purpose! Remove them!"/>
    <property name="Wait Time" type="int" value="3"/>
   </properties>
   <point/>
  </object>
 </objectgroup>
 <layer id="3" name="Tile Layer 2" width="32" height="32" offsetx="0" offsety="48">
  <data encoding="csv">
0,0,0,0,0,0,0,0,0,0,0,0,0,0,0,0,0,0,0,0,0,0,0,0,0,0,0,0,0,0,0,0,
0,0,0,0,0,0,0,0,0,0,0,0,0,0,0,0,0,0,0,0,0,0,0,0,0,0,0,0,0,0,0,0,
0,0,0,0,0,0,0,0,0,0,0,0,0,0,0,0,0,0,0,0,0,0,0,0,0,0,0,0,0,0,0,0,
0,0,0,0,0,0,0,0,0,0,0,0,0,0,0,0,0,0,0,0,0,0,0,0,0,0,0,0,0,0,0,0,
0,0,0,0,0,0,0,0,0,0,0,0,0,0,0,0,0,0,0,0,0,0,0,0,0,0,0,0,0,0,0,0,
0,0,0,0,0,0,0,0,0,0,0,0,0,0,0,0,0,0,0,0,0,0,0,0,0,0,0,0,0,0,0,0,
0,0,0,0,0,0,0,0,0,0,0,0,0,0,0,0,0,0,0,0,0,0,0,0,0,0,0,0,0,0,0,0,
0,0,0,0,0,0,0,0,0,0,0,0,0,0,0,14,0,0,0,0,0,0,0,0,0,0,14,0,0,0,0,0,
0,0,0,0,0,0,0,0,0,0,0,0,0,0,0,0,0,0,0,0,0,0,0,0,0,0,0,0,0,0,0,0,
0,0,0,0,0,0,0,0,0,0,0,0,0,0,0,0,0,0,0,0,0,0,0,0,0,0,0,0,0,0,0,0,
0,0,0,0,0,0,0,0,0,0,0,0,0,0,0,0,0,0,0,0,0,0,0,0,0,0,0,0,0,0,0,0,
0,0,0,0,0,0,0,0,0,0,0,0,0,0,0,0,0,0,0,0,0,0,0,0,0,0,0,0,0,0,0,0,
0,0,0,0,0,0,0,0,0,0,0,0,0,0,0,0,0,0,0,0,0,0,0,0,0,0,0,0,0,0,0,0,
0,0,0,0,0,0,0,0,0,0,0,0,0,0,0,0,0,0,0,0,0,0,0,0,0,0,0,0,0,0,0,0,
0,0,0,0,0,0,0,0,0,0,0,0,0,0,0,0,0,0,0,0,0,0,0,0,0,0,0,0,0,0,0,0,
0,0,0,0,0,0,0,0,0,0,0,0,0,0,0,0,0,0,0,0,0,0,0,0,0,0,0,0,0,0,0,0,
0,0,0,0,0,0,0,0,0,0,0,0,0,0,0,0,0,0,0,0,0,0,0,0,0,0,0,0,0,0,0,0,
0,0,0,0,0,0,0,0,0,0,0,0,0,0,0,0,0,0,0,0,0,0,0,0,0,0,0,0,0,0,0,0,
0,0,0,0,0,0,0,0,0,0,0,0,0,0,0,0,0,0,0,0,0,14,0,0,0,0,0,0,0,0,0,0,
0,0,0,0,0,0,0,0,0,0,0,0,0,0,0,0,0,0,0,0,0,0,0,0,0,0,0,0,0,0,0,0,
0,0,0,0,0,0,0,0,0,0,0,0,0,0,0,0,0,0,0,0,0,0,0,0,0,0,0,0,0,0,0,0,
2147483662,0,0,0,0,0,0,0,0,0,0,0,0,0,0,0,0,0,0,0,0,0,0,0,0,0,0,0,0,0,0,0,
0,0,0,0,0,0,0,0,0,0,0,0,0,0,0,0,0,0,0,0,0,0,0,0,0,0,0,0,0,0,0,0,
0,0,0,0,0,0,0,0,0,0,0,0,0,0,0,0,0,0,0,0,0,0,0,0,0,0,0,0,0,0,0,0,
0,0,0,0,0,0,0,0,0,0,0,0,0,0,0,0,0,0,0,0,0,0,0,0,0,0,0,0,0,0,0,0,
0,0,0,0,0,0,0,0,0,0,0,0,0,0,0,0,0,0,0,0,0,0,0,0,0,0,0,0,0,0,0,0,
0,0,0,0,0,0,0,0,0,0,0,0,0,0,0,0,0,0,0,0,0,0,0,0,0,0,0,0,0,0,0,0,
0,0,0,0,0,0,0,0,0,0,0,0,0,0,0,0,0,0,0,0,0,0,0,0,0,0,0,0,0,0,0,0,
0,0,0,0,0,0,0,0,0,0,0,0,0,0,0,0,0,0,0,0,0,0,0,0,0,0,0,0,0,0,0,0,
0,0,0,0,0,0,0,0,0,0,0,0,0,0,0,0,0,0,0,0,0,0,0,0,0,0,0,0,0,0,0,0,
0,0,0,0,0,0,0,0,0,0,0,0,0,0,0,0,0,0,0,0,0,0,0,0,0,0,0,0,0,0,0,0,
0,0,0,0,0,0,0,0,0,0,0,0,0,0,0,0,0,0,0,0,0,0,0,0,0,0,0,0,0,0,0,0
</data>
 </layer>
 <objectgroup id="4" name="Object Layer 2" offsetx="0" offsety="48">
  <object id="60" gid="2147483802" x="104" y="104" width="32" height="32">
   <properties>
    <property name="Flavor" value="Metto metto?"/>
   </properties>
  </object>
 </objectgroup>
 <layer id="5" name="Tile Layer 3" width="32" height="32" offsetx="0" offsety="32">
  <data encoding="csv">
0,0,0,0,0,0,0,0,0,0,0,0,0,0,0,0,0,0,0,0,0,0,0,0,0,0,0,0,0,0,0,0,
0,0,0,0,0,0,0,0,0,0,0,0,0,0,0,0,0,0,0,0,0,0,0,0,0,0,0,0,0,0,0,0,
0,0,0,0,0,0,0,0,0,0,0,0,0,0,0,0,0,0,0,0,0,0,0,0,0,0,0,0,0,0,0,0,
0,0,0,0,0,0,0,0,0,0,0,0,0,0,0,0,0,0,0,0,0,0,0,0,0,0,0,0,0,0,0,0,
0,0,0,0,0,0,0,0,0,0,0,0,0,0,0,0,0,0,0,0,0,0,0,0,0,0,0,0,0,0,0,0,
0,0,0,0,0,0,0,0,0,0,0,0,0,0,0,0,0,0,0,0,0,0,0,0,0,0,0,0,0,0,0,0,
0,0,0,0,0,0,0,0,0,0,0,0,0,0,0,0,0,0,0,0,0,0,0,0,0,0,0,0,0,0,0,0,
0,0,0,0,0,0,0,0,0,0,0,0,0,0,14,0,0,0,0,0,0,0,0,0,0,14,0,0,0,0,0,0,
0,0,0,0,0,0,0,0,0,0,0,0,0,0,0,0,0,0,0,0,0,0,0,0,0,0,0,0,0,0,0,0,
0,0,0,0,0,0,0,0,0,0,0,0,0,0,0,0,0,0,0,0,0,0,0,0,0,0,0,0,0,0,0,0,
0,0,0,0,0,0,0,0,0,0,0,0,0,0,0,0,0,0,0,0,0,0,0,0,0,0,0,0,0,0,0,0,
0,0,0,0,0,0,0,0,0,0,0,0,0,0,0,0,0,0,0,0,0,0,0,0,0,0,0,0,0,0,0,0,
0,0,0,0,0,0,0,0,0,0,0,0,0,0,0,0,0,0,0,0,0,0,0,0,0,0,0,0,0,0,0,0,
0,0,0,0,0,0,0,0,0,0,0,0,0,0,0,0,0,0,0,0,0,0,0,0,0,0,0,0,0,0,0,0,
0,0,0,0,0,0,0,0,0,0,0,0,0,0,0,0,0,0,0,0,0,0,0,0,0,0,0,0,0,0,0,0,
0,0,0,0,0,0,0,0,0,0,0,0,0,0,0,0,0,0,0,0,0,0,0,0,0,0,0,0,0,0,0,0,
0,0,0,0,0,0,0,0,0,0,0,0,0,0,0,0,0,0,0,0,0,0,0,0,0,0,0,0,0,0,0,0,
0,0,0,0,0,0,0,0,0,0,0,0,0,0,0,0,0,0,0,0,0,0,0,0,0,0,0,0,0,0,0,0,
0,0,0,0,0,0,0,0,0,0,0,0,0,0,0,0,0,0,0,0,14,0,0,0,0,0,0,0,0,0,0,0,
0,0,0,0,0,0,0,0,0,0,0,0,0,0,0,0,0,0,0,0,0,0,0,0,0,0,0,0,0,0,0,0,
2147483662,0,0,0,0,0,0,0,0,0,0,0,0,0,0,0,0,0,0,0,0,0,0,0,0,0,0,0,0,0,0,0,
0,0,0,0,0,0,0,0,0,0,0,0,0,0,0,0,0,0,0,0,0,0,0,0,0,0,0,0,0,0,0,0,
0,0,0,0,0,0,0,0,0,0,0,0,0,0,0,0,0,0,0,0,0,0,0,0,0,0,0,0,0,0,0,0,
0,0,0,0,0,0,0,0,0,0,0,0,0,0,0,0,0,0,0,0,0,0,0,0,0,0,0,0,0,0,0,0,
0,0,0,0,0,0,0,0,0,0,0,0,0,0,0,0,0,0,0,0,0,0,0,0,0,0,0,0,0,0,0,0,
0,0,0,0,0,0,0,0,0,0,0,0,0,0,0,0,0,0,0,0,0,0,0,0,0,0,0,0,0,0,0,0,
0,0,0,0,0,0,0,0,0,0,0,0,0,0,0,0,0,0,0,0,0,0,0,0,0,0,0,0,0,0,0,0,
0,0,0,0,0,0,0,0,0,0,0,0,0,0,0,0,0,0,0,0,0,0,0,0,0,0,0,0,0,0,0,0,
0,0,0,0,0,0,0,0,0,0,0,0,0,0,0,0,0,0,0,0,0,0,0,0,0,0,0,0,0,0,0,0,
0,0,0,0,0,0,0,0,0,0,0,0,0,0,0,0,0,0,0,0,0,0,0,0,0,0,0,0,0,0,0,0,
0,0,0,0,0,0,0,0,0,0,0,0,0,0,0,0,0,0,0,0,0,0,0,0,0,0,0,0,0,0,0,0,
0,0,0,0,0,0,0,0,0,0,0,0,0,0,0,0,0,0,0,0,0,0,0,0,0,0,0,0,0,0,0,0
</data>
 </layer>
 <objectgroup id="6" name="Object Layer 3" offsetx="0" offsety="32"/>
 <layer id="7" name="Tile Layer 4" width="32" height="32" offsetx="0" offsety="16">
  <data encoding="csv">
0,0,0,0,0,0,0,0,0,0,0,0,0,0,0,0,0,0,0,0,0,0,0,0,0,0,0,0,0,0,0,0,
0,0,0,0,0,0,0,0,0,0,0,0,0,0,0,0,0,0,0,0,0,0,0,0,0,0,0,0,0,0,0,0,
0,0,0,0,0,0,0,0,0,0,0,0,0,0,0,0,0,0,0,0,0,0,0,0,0,0,0,0,0,0,0,0,
0,0,0,0,0,0,0,0,0,0,0,0,0,0,0,0,0,0,0,0,0,0,0,0,0,0,0,0,0,0,0,0,
0,0,0,0,0,0,0,0,0,0,0,0,0,0,0,0,0,0,0,0,0,0,0,0,0,0,0,0,0,0,0,0,
0,0,0,0,0,0,0,0,0,0,0,0,0,0,0,0,0,0,0,0,0,0,0,0,0,0,0,0,0,0,0,0,
0,0,0,0,0,0,0,0,0,0,0,0,0,0,0,0,0,0,0,0,0,0,0,0,0,0,0,0,0,0,0,0,
0,0,0,0,0,0,0,0,0,0,0,0,0,14,0,0,0,0,0,0,0,0,0,0,14,0,0,0,0,0,0,0,
0,0,0,0,0,0,0,0,0,0,0,0,0,0,0,0,0,0,0,0,0,0,0,0,0,0,0,0,0,0,0,0,
0,0,0,0,0,0,0,0,0,0,0,0,0,0,0,0,0,0,0,0,0,0,0,0,0,0,0,0,0,0,0,0,
0,0,0,0,0,0,0,0,0,0,0,0,0,0,0,0,0,0,0,0,0,0,0,0,0,0,0,0,0,0,0,0,
0,0,0,0,0,0,0,0,0,0,0,0,0,0,0,0,0,0,0,0,0,0,0,0,0,0,0,0,0,0,0,0,
0,0,0,0,0,0,0,0,0,0,0,0,0,0,0,0,0,0,0,0,0,0,0,0,0,0,0,0,0,0,0,0,
0,0,0,0,0,0,0,0,0,0,0,0,0,0,0,0,0,0,0,0,0,0,0,0,0,0,0,0,0,0,0,0,
0,0,0,0,0,0,0,0,0,0,0,0,0,0,0,0,0,0,0,0,0,0,0,0,0,0,0,0,0,0,0,0,
0,0,0,0,0,0,0,0,0,0,0,0,0,0,0,0,0,0,0,0,0,0,0,0,0,0,0,0,0,0,0,0,
0,0,0,0,0,0,0,0,0,0,0,0,0,0,0,0,0,0,0,0,0,0,0,0,0,0,0,0,0,0,0,0,
0,0,0,0,0,0,0,0,0,0,0,0,0,0,0,0,0,0,0,0,0,0,0,0,0,0,0,0,0,0,0,0,
0,0,0,0,0,0,0,0,0,0,0,0,0,0,0,0,0,0,0,14,0,0,0,0,0,0,0,0,0,0,0,0,
2147483662,0,0,0,0,0,0,0,0,0,0,0,0,0,0,0,0,0,0,0,0,0,0,0,0,0,0,0,0,0,0,0,
0,0,0,0,0,0,0,0,0,0,0,0,0,0,0,0,0,0,0,0,0,0,0,0,0,0,0,0,0,0,0,0,
0,0,0,0,0,0,0,0,0,0,0,0,0,0,0,0,0,0,0,0,0,0,0,0,0,0,0,0,0,0,0,0,
0,0,0,0,0,0,0,0,0,0,0,0,0,0,0,0,0,0,0,0,0,0,0,0,0,0,0,0,0,0,0,0,
0,0,0,0,0,0,0,0,0,0,0,0,0,0,0,0,0,0,0,0,0,0,0,0,0,0,0,0,0,0,0,0,
0,0,0,0,0,0,0,0,0,0,0,0,0,0,0,0,0,0,0,0,0,0,0,0,0,0,0,0,0,0,0,0,
0,0,0,0,0,0,0,0,0,0,0,0,0,0,0,0,0,0,0,0,0,0,0,0,0,0,0,0,0,0,0,0,
0,0,0,0,0,0,0,0,0,0,0,0,0,0,0,0,0,0,0,0,0,0,0,0,0,0,0,0,0,0,0,0,
0,0,0,0,0,0,0,0,0,0,0,0,0,0,0,0,0,0,0,0,0,0,0,0,0,0,0,0,0,0,0,0,
0,0,0,0,0,0,0,0,0,0,0,0,0,0,0,0,0,0,0,0,0,0,0,0,0,0,0,0,0,0,0,0,
0,0,0,0,0,0,0,0,0,0,0,0,0,0,0,0,0,0,0,0,0,0,0,0,0,0,0,0,0,0,0,0,
0,0,0,0,0,0,0,0,0,0,0,0,0,0,0,0,0,0,0,0,0,0,0,0,0,0,0,0,0,0,0,0,
0,0,0,0,0,0,0,0,0,0,0,0,0,0,0,0,0,0,0,0,0,0,0,0,0,0,0,0,0,0,0,0
</data>
 </layer>
 <objectgroup id="8" name="Object Layer 4" offsetx="0" offsety="16"/>
 <layer id="9" name="Tile Layer 5" width="32" height="32">
  <data encoding="csv">
0,0,0,0,0,0,0,0,0,1,13,1,0,0,0,0,0,0,2147483697,0,0,13,1,13,0,0,0,0,0,13,1,13,
0,0,0,0,0,0,0,0,0,13,5,13,0,0,0,0,0,0,5,0,0,1,1,1,2147483656,2147483655,2147483655,2147483655,2147483654,1,1,1,
0,0,0,0,0,0,0,0,0,1,13,1,0,0,0,0,0,0,1,2147483655,2147483654,1,1,1,0,0,0,0,0,13,1,13,
0,0,0,0,0,0,0,0,0,0,8,0,0,0,0,0,0,0,0,0,0,1,1,1,0,0,0,0,0,0,8,0,
0,0,0,0,0,0,0,0,0,0,7,0,0,0,0,0,1,2147483660,2147483659,2147483659,2147483658,1,1,1,0,0,0,0,0,0,6,0,
0,0,0,0,0,0,0,0,0,0,7,0,0,0,0,0,12,0,0,0,0,1,1,1,0,0,0,0,1,5,1,0,
0,0,0,0,0,0,0,0,0,0,6,0,0,0,0,0,11,0,0,0,0,1,1,1,0,0,0,0,8,0,0,0,
0,0,0,0,0,0,0,0,0,0,13,5,13,15,0,0,11,0,0,0,0,1,1,1,15,0,0,0,7,0,0,0,
0,0,0,0,0,0,0,0,0,0,0,0,8,0,0,0,11,0,0,0,0,13,1,13,0,0,0,0,7,0,0,0,
0,0,0,0,0,0,0,0,0,0,0,0,7,0,0,0,11,0,0,0,0,0,0,0,0,0,0,0,7,0,0,0,
0,0,0,0,0,0,0,0,0,0,3,0,6,0,0,0,10,0,2147483651,0,0,0,0,0,0,0,0,0,7,0,0,0,
0,0,0,0,0,0,0,0,0,0,13,1,1,1,1,1,1,1,13,0,0,0,0,0,0,0,0,0,7,0,0,0,
1,5,2147483650,4,2147483652,2147483651,2,3,2147483651,2147483654,1,1,1,1,1,1,1,1,1,0,0,0,0,0,0,0,0,0,7,0,0,0,
8,0,0,0,3,0,0,0,0,0,1,1,35,34,1,35,34,1,1,0,0,0,0,0,0,0,0,0,7,0,0,0,
7,0,0,0,7,0,0,13,1,0,1,1,36,33,34,33,33,1,1,0,0,0,0,0,0,0,0,0,6,0,0,0,
7,0,0,0,7,0,0,1,1,1,1,1,1,36,1,36,1,1,1,2147483656,2147483655,2147483655,2147483655,2147483655,2147483655,2147483655,2147483655,2147483654,13,2147483656,2147483654,50,
7,0,0,0,7,0,0,13,1,0,1,1,35,33,34,33,34,1,1,0,0,0,0,0,0,0,0,0,0,0,0,0,
6,0,0,0,6,0,0,0,0,0,1,1,36,33,1,36,33,1,1,0,0,0,0,0,0,0,0,0,0,0,0,0,
1,2147483656,2147483655,2147483654,13,2147483656,2147483655,2147483655,2147483655,2147483654,1,1,1,1,1,1,1,1,1,15,0,0,0,0,0,0,0,0,0,0,0,0,
2147483663,0,0,0,8,0,0,0,0,0,13,1,1,1,1,1,1,1,13,0,0,0,0,0,0,0,0,0,0,0,0,0,
0,0,0,0,7,0,1,1,1,0,0,0,0,0,12,0,0,0,5,0,0,0,0,0,0,0,0,0,0,0,0,0,
0,0,0,0,6,0,1,13,1,0,0,0,0,0,11,0,0,1,1,1,0,0,0,0,0,0,0,0,0,0,0,0,
0,0,0,0,1,5,1,1,1,0,0,0,0,0,11,0,0,13,1,13,0,0,0,0,0,0,0,0,0,0,0,0,
0,0,0,0,0,0,1,13,1,0,0,0,0,0,10,0,0,0,0,0,0,0,0,0,0,0,0,0,0,0,0,0,
0,0,0,0,0,0,1,1,1,0,0,0,13,1,1,1,13,0,0,0,0,0,0,0,0,0,0,0,0,0,0,0,
0,0,0,0,0,0,1,13,1,0,0,0,1,1,1,1,1,0,0,0,0,0,0,0,0,0,0,0,0,0,0,0,
0,0,0,0,0,0,1,1,1,0,0,0,1,1,1,1,1,0,0,0,0,0,0,0,0,0,0,0,0,0,0,0,
0,0,0,0,0,0,0,0,0,0,0,0,1,1,1,1,1,0,0,0,0,0,0,0,0,0,0,0,0,0,0,0,
0,0,0,0,0,0,0,0,0,0,0,0,13,1,1,1,13,0,0,0,0,0,0,0,0,0,0,0,0,0,0,0,
0,0,0,0,0,0,0,0,0,0,0,0,0,0,0,0,0,0,0,0,0,0,0,0,0,0,0,0,0,0,0,0,
0,0,0,0,0,0,0,0,0,0,0,0,0,0,0,0,0,0,0,0,0,0,0,0,0,0,0,0,0,0,0,0,
0,0,0,0,0,0,0,0,0,0,0,0,0,0,0,0,0,0,0,0,0,0,0,0,0,0,0,0,0,0,0,0
</data>
 </layer>
 <objectgroup id="10" name="Object Layer 5">
  <object id="14" name="HP Warp" type="Home Warp" gid="82" x="448" y="832" width="64" height="32">
   <properties>
    <property name="Direction" value="Up Right"/>
   </properties>
  </object>
  <object id="15" name="THE GATEKEEPER" type="NPC" x="432" y="784">
   <properties>
    <property name="Asset Name" value="prog"/>
    <property name="Dialogue Type" value="first"/>
    <property name="Direction" value="Down Left"/>
    <property name="Text 1" value="WELCOME TO THE PLAZA. IT HAS BEEN REWORKED AND MADE MORE EASY OF ACCESS."/>
    <property name="Wait Time" type="int" value="3"/>
   </properties>
   <point/>
  </object>
  <object id="16" gid="86" x="464" y="496" width="32" height="64">
   <properties>
    <property name="Flavor" value="How did you get here, and how will you get out?"/>
   </properties>
  </object>
  <object id="17" name="Traveling Navi" type="NPC" x="200" y="696">
   <properties>
    <property name="Asset Name" value="heel-navi-exe4_purple"/>
    <property name="Dialogue Type" value="first"/>
    <property name="Direction" value="Down Left"/>
    <property name="Text 1" value="Still? We're STILL waiting for external links."/>
    <property name="Wait Time" type="int" value="3"/>
   </properties>
   <point/>
  </object>
  <object id="18" name="Chatter BBS" gid="95" x="171.719" y="482.906" width="40" height="53">
   <properties>
    <property name="BBS" type="bool" value="true"/>
    <property name="Color" type="color" value="#ff55aa7f"/>
    <property name="Name" value="Plaza Chat"/>
    <property name="Post Limit" type="int" value="64"/>
   </properties>
  </object>
  <object id="19" name="Suggestion BBS" gid="95" x="171.719" y="418.906" width="40" height="53">
   <properties>
    <property name="BBS" type="bool" value="true"/>
    <property name="Color" type="color" value="#ffffaaff"/>
    <property name="Name" value="Plaza Suggestions"/>
    <property name="Post Limit" type="int" value="64"/>
   </properties>
  </object>
  <object id="20" gid="102" x="328" y="88" width="32" height="128">
   <properties>
    <property name="Flavor" value="You need &quot;QuetzenKey&quot; to open this."/>
   </properties>
  </object>
  <object id="23" name="Aloof Program" type="NPC" x="976" y="16">
   <properties>
    <property name="Asset Name" value="prog"/>
    <property name="Dialogue Type" value="first"/>
    <property name="Direction" value="Down Left"/>
    <property name="Text 1" value="I FEEL BLESED FOR BEING KEPT AROUND. BUT I FEAR I HAVE LOST MY PURPOSE..."/>
    <property name="Wait Time" type="int" value="3"/>
   </properties>
   <point/>
  </object>
  <object id="24" gid="2147483759" x="968" y="504" width="32" height="128">
   <properties>
    <property name="Flavor" value="You need &quot;Ofcl Key&quot; to open this."/>
   </properties>
  </object>
  <object id="25" gid="120" x="592" y="704" width="64" height="128">
   <properties>
    <property name="Flavor" value="This whirlwind appears to no longer have a purpose. Even if it had none."/>
   </properties>
  </object>
  <object id="26" gid="124" x="304" y="528" width="64" height="64">
   <properties>
    <property name="Flavor" value="A green tree. The bright color soothes you."/>
   </properties>
  </object>
  <object id="27" gid="124" x="304" y="464" width="64" height="64">
   <properties>
    <property name="Flavor" value="A green tree. The bright color soothes you."/>
   </properties>
  </object>
  <object id="28" gid="136" x="224" y="800" width="64" height="32"/>
  <object id="29" gid="136" x="224" y="736" width="64" height="32"/>
  <object id="30" gid="136" x="224" y="672" width="64" height="32"/>
  <object id="44" name="Slacking Heelnavi" type="NPC" x="688" y="272">
   <properties>
    <property name="Asset Name" value="heel-navi-exe4_purple"/>
    <property name="Dialogue Type" value="first"/>
    <property name="Direction" value="Down Left"/>
    <property name="Text 1" value="Take it from me. The new guy who runs the ONB news is a slacker!"/>
    <property name="Wait Time" type="int" value="3"/>
   </properties>
   <point/>
  </object>
  <object id="45" name="Overworked Navi" type="NPC" x="760" y="80">
   <properties>
    <property name="Asset Name" value="normal-navi-bn4_green"/>
    <property name="Dialogue Type" value="first"/>
    <property name="Direction" value="Down Right"/>
    <property name="Text 1" value="They said it couldn't be done, but I showed them! Me? I'm the architect for this quadrant."/>
    <property name="Wait Time" type="int" value="3"/>
   </properties>
   <point/>
  </object>
  <object id="46" name="Management Team Member" type="NPC" x="304" y="400">
   <properties>
    <property name="Asset Name" value="normal-navi-bn4_green"/>
    <property name="Dialogue Type" value="first"/>
    <property name="Direction" value="Up Left"/>
    <property name="Text 1" value="...... Fine, tell management all you want, I'm tired of fixing this quadrant."/>
    <property name="Wait Time" type="int" value="3"/>
   </properties>
   <point/>
  </object>
  <object id="52" gid="147" x="336" y="624" width="32" height="32">
   <properties>
    <property name="Flavor" value="A digi-server. It fuels the plaza with cyber-energy."/>
   </properties>
  </object>
  <object id="53" gid="147" x="336" y="368" width="32" height="32">
   <properties>
    <property name="Flavor" value="A digi-server. It radiates a potent data-aura."/>
   </properties>
  </object>
  <object id="54" gid="147" x="688" y="16" width="32" height="32">
   <properties>
    <property name="Flavor" value="A Digi-server. In tandem with the others, it keeps the plaza alive."/>
   </properties>
  </object>
  <object id="55" gid="147" x="1008" y="80" width="32" height="32">
   <properties>
    <property name="Flavor" value="A Digi-server. It sounds much calmer, now that the water is gone."/>
   </properties>
  </object>
  <object id="61" gid="73" x="136" y="464" width="64" height="64">
   <properties>
    <property name="Flavor" value="An unmovable wall of data bloat. It persisted the map changes."/>
   </properties>
  </object>
  <object id="62" name="Maintenance navi" type="NPC" x="440" y="584">
   <properties>
    <property name="Asset Name" value="male-navi-exe6_teal"/>
    <property name="Dialogue Type" value="first"/>
    <property name="Direction" value="Down Left"/>
    <property name="Text 1" value="Everything is all right in the Plaza!"/>
    <property name="Wait Time" type="int" value="3"/>
   </properties>
   <point/>
  </object>
  <object id="63" name="Nagging official" type="NPC" x="600" y="536">
   <properties>
    <property name="Asset Name" value="official-navi-exe6_orange"/>
    <property name="Dialogue Type" value="first"/>
    <property name="Direction" value="Up Left"/>
    <property name="Text 1" value="I may look like an Official navi, but thankfully, THANKFULLY I don't look like an Official navi."/>
    <property name="Wait Time" type="int" value="3"/>
   </properties>
   <point/>
  </object>
 </objectgroup>
</map>
