<?xml version="1.0" encoding="UTF-8"?>
<map version="1.8" tiledversion="1.8.5" orientation="isometric" renderorder="right-down" width="32" height="32" tilewidth="64" tileheight="32" infinite="0" nextlayerid="3" nextobjectid="22">
 <tileset firstgid="1" source="../assets/tiles/Drums.tsx"/>
 <tileset firstgid="7" source="../assets/tiles/OldMine.tsx"/>
 <tileset firstgid="23" source="../assets/tiles/Undernet test.tsx"/>
 <tileset firstgid="35" source="../assets/tiles/OldMine Objects.tsx"/>
 <layer id="1" name="Tile Layer 1" width="32" height="32">
  <data encoding="csv">
0,0,7,8,8,0,0,7,8,8,8,8,8,8,8,8,8,8,0,0,0,0,0,0,0,0,0,0,0,0,0,0,
0,0,11,12,12,0,0,0,0,0,11,12,12,12,12,0,0,0,0,0,0,0,0,0,0,0,0,0,0,0,0,0,
0,0,11,12,12,0,0,0,0,0,0,0,11,0,0,0,0,7,8,8,8,8,8,8,8,8,8,8,8,8,0,0,
0,7,12,12,12,8,8,8,8,8,8,8,12,8,8,8,8,12,0,0,0,0,0,0,0,0,0,0,0,11,0,0,
0,11,12,12,12,12,12,0,0,0,0,0,0,0,0,0,0,11,0,0,0,0,0,0,0,0,0,0,0,11,0,0,
0,11,12,12,12,12,12,0,0,0,0,0,0,0,0,0,0,11,0,0,0,7,8,8,8,8,8,0,0,11,0,0,
0,11,12,12,12,12,12,0,0,0,7,8,8,0,0,0,0,11,0,0,0,11,0,0,11,12,12,0,0,11,0,0,
0,11,12,12,12,12,12,0,0,0,11,12,12,0,0,0,0,11,8,8,8,12,0,0,0,0,0,0,0,11,0,0,
0,11,12,12,12,12,12,0,0,0,0,11,0,0,0,0,0,11,0,0,0,11,0,0,0,0,0,0,0,11,0,0,
0,0,0,11,12,0,0,0,0,0,0,11,0,0,0,0,0,11,0,0,0,11,0,0,0,0,7,8,8,12,0,0,
0,0,0,11,12,0,0,0,7,8,8,12,8,8,8,8,0,0,0,0,0,11,0,0,0,0,11,0,0,0,0,0,
0,0,0,11,12,0,0,0,11,12,12,12,12,12,12,12,0,0,0,0,0,11,0,0,0,0,11,0,0,0,0,0,
0,0,0,0,0,0,0,0,11,12,12,12,12,12,12,12,0,0,0,0,0,11,0,0,0,0,11,0,0,0,0,0,
0,0,0,0,0,0,0,0,0,0,0,11,0,0,0,0,0,0,0,0,0,11,0,0,0,0,11,0,0,0,0,0,
0,0,0,0,0,0,0,0,0,0,0,11,0,0,0,0,0,0,0,0,0,0,0,0,0,7,12,8,0,0,0,0,
0,0,0,0,7,8,8,8,8,8,8,12,0,0,0,0,0,0,0,7,8,8,8,8,8,12,12,12,8,0,0,0,
0,0,0,0,11,0,0,0,0,0,0,0,0,0,0,0,0,0,0,11,0,0,0,0,0,11,12,12,0,0,0,0,
0,0,0,0,11,0,0,0,0,0,0,0,0,0,0,0,0,0,0,11,0,0,0,0,0,0,11,0,0,0,0,0,
0,0,0,0,11,8,8,0,0,0,0,0,7,8,8,8,0,0,0,11,0,0,0,0,0,0,11,0,0,0,0,0,
0,7,8,0,11,12,12,0,0,0,0,0,0,0,0,11,0,0,0,11,0,0,0,7,8,0,11,0,7,8,0,0,
0,11,12,0,11,12,12,0,0,0,0,0,0,0,7,12,8,8,8,12,0,0,0,11,12,8,12,8,12,12,0,0,
0,0,11,0,0,0,0,0,7,8,0,0,0,0,11,12,12,0,0,0,0,0,0,11,12,0,11,0,11,12,0,0,
0,0,11,8,8,8,8,8,12,12,0,0,0,7,12,12,12,8,0,0,0,0,0,0,0,0,11,0,0,0,0,0,
0,0,11,0,0,0,0,0,11,12,0,0,0,0,0,11,0,0,0,0,0,0,0,7,8,0,11,0,7,8,0,0,
0,7,12,0,0,0,0,0,11,12,0,0,0,0,0,11,0,0,7,8,0,0,0,11,12,8,12,8,12,12,0,0,
0,11,12,0,0,0,0,0,11,12,0,0,0,0,7,12,8,8,12,12,0,0,0,11,12,0,11,0,11,12,0,0,
0,0,0,0,7,8,8,8,12,12,8,8,8,8,12,12,12,0,0,0,0,0,0,0,0,0,11,0,0,0,0,0,
0,0,0,0,11,0,0,0,11,12,0,0,0,0,11,12,12,8,8,8,0,0,0,7,8,0,11,0,7,8,0,0,
0,7,8,8,12,0,0,0,0,0,0,0,0,0,0,11,0,0,11,12,0,0,0,11,12,8,12,8,12,12,0,0,
0,11,0,0,11,0,0,0,0,0,0,0,0,0,0,11,0,0,0,0,0,0,0,11,12,0,0,0,11,12,0,0,
0,11,8,8,12,0,0,0,0,0,0,0,0,0,0,11,0,0,0,0,0,0,0,0,0,0,0,0,0,0,0,0,
0,0,0,0,0,0,0,0,0,0,0,0,0,0,0,15,0,0,0,0,0,0,0,0,0,0,0,0,0,0,0,0
</data>
 </layer>
 <objectgroup id="2" name="Object Layer 1">
  <object id="9" gid="6" x="400" y="592" width="24" height="32"/>
  <object id="10" gid="6" x="400" y="608" width="24" height="32"/>
  <object id="11" gid="1" x="96" y="912" width="24" height="32"/>
  <object id="12" gid="4" x="88" y="928" width="24" height="32"/>
  <object id="16" gid="35" x="724" y="892" width="64" height="96"/>
  <object id="17" gid="35" x="724" y="764" width="64" height="96"/>
  <object id="18" gid="35" x="724" y="636" width="64" height="96"/>
  <object id="19" gid="36" x="740" y="652" width="64" height="96"/>
  <object id="20" gid="36" x="740" y="780" width="64" height="96"/>
  <object id="21" gid="36" x="740" y="908" width="64" height="96"/>
 </objectgroup>
</map>
