<?xml version="1.0" encoding="UTF-8"?>
<map version="1.8" tiledversion="1.8.5" orientation="isometric" renderorder="right-down" width="10" height="10" tilewidth="64" tileheight="32" infinite="0" nextlayerid="5" nextobjectid="7">
 <properties>
  <property name="Background" value="custom"/>
  <property name="Background Animation" value="/server/assets/bg/bg_cyber.animation"/>
  <property name="Background Texture" value="/server/assets/bg/bg_cyber.png"/>
  <property name="Background Vel X" type="float" value="0.64"/>
  <property name="Background Vel Y" type="float" value="0.32"/>
  <property name="Name" value="AnimeBank HP"/>
 </properties>
 <tileset firstgid="1" source="../assets/tiles/Flat Terminal.tsx"/>
 <tileset firstgid="7" source="../assets/tiles/Artificial sun.tsx"/>
 <tileset firstgid="16" source="../assets/tiles/ONB teleport template.tsx"/>
 <layer id="1" name="Tile Layer 1" width="10" height="10">
  <data encoding="csv">
5,2147483649,2147483649,2147483650,2147483650,2147483650,2147483650,2147483649,2147483649,2147483649,
1,3,3,4,4,4,4,3,3,3,
1,3,3,4,4,4,4,3,3,3,
1,3,3,4,4,4,4,3,3,3,
1,3,3,3,3,3,3,3,3,3,
1,3,3,3,3,3,3,3,3,3,
1,3,3,3,3,3,3,3,3,3,
1,3,3,3,3,3,3,3,3,3,
1,3,3,3,4,4,3,3,3,3,
1,3,3,3,4,4,3,3,3,3
</data>
 </layer>
 <objectgroup id="2" name="Object Layer 1">
  <object id="1" gid="7" x="160" y="64" width="128" height="96">
   <properties>
    <property name="Flavor" value="You're beholding a colossal databanks of comic books, tv shows, tv specials, cyber-idols, and things you never thought you'd see even if you lived in Electopia."/>
   </properties>
  </object>
  <object id="4" type="Custom Warp" gid="23" x="144" y="272" width="64" height="32">
   <properties>
    <property name="Direction" value="Up Right"/>
    <property name="Target Area" value="Global_hub"/>
    <property name="Target Object" type="int" value="28"/>
   </properties>
  </object>
  <object id="6" name="Sorting Prog" type="NPC" x="160" y="112">
   <properties>
    <property name="Asset Name" value="prog"/>
    <property name="Dialogue Type" value="first"/>
    <property name="Direction" value="Up Right"/>
    <property name="Text 1" value="OKAY, I'M PATIENT, BUT THERE ARE JUST TOO MANY REQUESTS, EVEN FOR AN AUTOMATED SERVICE. I TIRE OF REPEAT OFFENDERS AND MULTIPLE PREORDERS. NO, WE'RE NOT SENDING THOSE OVERSEAS."/>
    <property name="Wait Time" type="int" value="3"/>
   </properties>
   <point/>
  </object>
 </objectgroup>
 <layer id="3" name="Tile Layer 2" width="10" height="10">
  <data encoding="csv">
0,0,0,0,0,0,0,0,0,0,
0,0,0,0,0,0,0,0,0,0,
0,0,0,0,0,0,0,0,0,0,
0,0,0,0,0,0,0,0,0,0,
0,0,0,0,0,0,0,0,0,0,
0,0,0,0,0,0,0,0,0,0,
0,0,0,0,0,0,0,0,0,0,
0,0,0,0,0,0,0,0,0,0,
0,0,0,0,0,0,0,0,0,0,
0,0,0,0,0,0,0,0,0,0
</data>
 </layer>
 <objectgroup id="4" name="Object Layer 2">
  <object id="5" gid="13" x="112" y="16" width="128" height="96"/>
 </objectgroup>
</map>
