<?xml version="1.0" encoding="UTF-8"?>
<map version="1.8" tiledversion="1.8.5" orientation="isometric" renderorder="right-down" width="10" height="10" tilewidth="64" tileheight="32" infinite="0" nextlayerid="5" nextobjectid="8">
 <properties>
  <property name="Background" value="custom"/>
  <property name="Background Animation" value="/server/assets/bg/bg_cyber.animation"/>
  <property name="Background Texture" value="/server/assets/bg/bg_cyber.png"/>
  <property name="Background Vel X" type="float" value="0.64"/>
  <property name="Background Vel Y" type="float" value="0.32"/>
  <property name="Name" value="NaviFact HP"/>
 </properties>
 <tileset firstgid="1" source="../assets/tiles/Flat Terminal.tsx"/>
 <tileset firstgid="7" source="../assets/tiles/Artificial sun.tsx"/>
 <tileset firstgid="16" source="../assets/tiles/ONB teleport template.tsx"/>
 <layer id="1" name="Tile Layer 1" width="10" height="10">
  <data encoding="csv">
5,2147483649,2147483649,2147483650,2147483650,2147483650,2147483650,2147483649,2147483649,2147483649,
1,3,3,4,4,4,4,3,3,3,
1,3,3,4,4,4,4,3,3,3,
1,3,3,4,4,4,4,3,3,3,
1,3,3,3,3,3,3,3,3,3,
1,3,3,3,3,3,3,3,3,3,
1,3,3,3,3,3,3,3,3,3,
1,3,3,3,3,3,3,3,3,3,
1,3,3,3,4,4,3,3,3,3,
1,3,3,3,4,4,3,3,3,3
</data>
 </layer>
 <objectgroup id="2" name="Object Layer 1">
  <object id="1" gid="7" x="160" y="64" width="128" height="96">
   <properties>
    <property name="Flavor" value="Navi designs. A large list of custom-made Net Navis, as well as templates. You've never noticed until now how many unique arms a navi can have. The selection is overwhelming."/>
   </properties>
  </object>
  <object id="6" type="Custom Warp" gid="23" x="144" y="272" width="64" height="32">
   <properties>
    <property name="Direction" value="Up Right"/>
    <property name="Target Area" value="Industrial_hub"/>
    <property name="Target Object" type="int" value="165"/>
   </properties>
  </object>
  <object id="7" name="NaviFact Prog" type="NPC" x="160" y="112">
   <properties>
    <property name="Asset Name" value="prog"/>
    <property name="Dialogue Type" value="first"/>
    <property name="Direction" value="Up Right"/>
    <property name="Text 1" value="WE'VE DECIDED TO ONLY LET A CERTAIN, FINITE AMOUNT OF NAVI DESIGNS AT ONCE TO REDUCE CYBERWORLD BUFFERING. I'M NOT SURE WHAT THE HUMANS ARE TALKING ABOUT, BUT IT IS MEANT TO MAKE IT THAT MORE NAVIS CAN HANG OUT AND BE EFFICIENT ON THE NET WITHOUT...... HOLD ON. YOU'RE A CUSTON MODEL, AREN;T YOU? OH, BOTHER!!"/>
    <property name="Wait Time" type="int" value="3"/>
   </properties>
   <point/>
  </object>
 </objectgroup>
 <layer id="3" name="Tile Layer 2" width="10" height="10" offsetx="0" offsety="-16">
  <data encoding="csv">
0,0,0,0,0,0,0,0,0,0,
0,0,0,0,0,0,0,0,0,0,
0,0,0,0,0,0,0,0,0,0,
0,0,0,0,0,0,0,0,0,0,
0,0,0,0,0,0,0,0,0,0,
0,0,0,0,0,0,0,0,0,0,
0,0,0,0,0,0,0,0,0,0,
0,0,0,0,0,0,0,0,0,0,
0,0,0,0,0,0,0,0,0,0,
0,0,0,0,0,0,0,0,0,0
</data>
 </layer>
 <objectgroup id="4" name="Object Layer 2" offsetx="0" offsety="-16">
  <object id="5" gid="13" x="128" y="32" width="128" height="96"/>
 </objectgroup>
</map>
