<?xml version="1.0" encoding="UTF-8"?>
<map version="1.8" tiledversion="1.8.5" orientation="isometric" renderorder="right-down" width="10" height="10" tilewidth="64" tileheight="32" infinite="0" nextlayerid="5" nextobjectid="9">
 <properties>
  <property name="Background" value="custom"/>
  <property name="Background Animation" value="/server/assets/bg/bg_cyber.animation"/>
  <property name="Background Texture" value="/server/assets/bg/bg_cyber.png"/>
  <property name="Background Vel X" type="float" value="0.64"/>
  <property name="Background Vel Y" type="float" value="0.32"/>
  <property name="Name" value="RestaurantHP"/>
 </properties>
 <tileset firstgid="1" source="../assets/tiles/Artificial sun.tsx"/>
 <tileset firstgid="10" source="../assets/tiles/ONB teleport template.tsx"/>
 <tileset firstgid="274" source="../assets/tiles/Flat terminal.tsx"/>
 <tileset firstgid="280" source="../assets/tiles/Flat Terminal.tsx"/>
 <layer id="1" name="Tile Layer 1" width="10" height="10">
  <data encoding="csv">
284,2147483928,2147483928,2147483929,2147483929,2147483929,2147483929,2147483928,2147483928,2147483928,
280,282,282,283,283,283,283,282,282,282,
280,282,282,283,283,283,283,282,282,282,
280,282,282,283,283,283,283,282,282,282,
280,282,282,282,282,282,282,282,282,282,
280,282,282,282,282,282,282,282,282,282,
280,282,282,282,282,282,282,282,282,282,
280,282,282,282,282,282,282,282,282,282,
280,282,282,282,283,283,282,282,282,282,
280,282,282,282,283,283,282,282,282,282
</data>
 </layer>
 <objectgroup id="2" name="Object Layer 1">
  <object id="6" type="Custom Warp" gid="17" x="144" y="272" width="64" height="32">
   <properties>
    <property name="Direction" value="Up Right"/>
    <property name="Target Area" value="Industrial_hub"/>
    <property name="Target Object" type="int" value="32"/>
   </properties>
  </object>
  <object id="7" gid="1" x="160" y="64" width="128" height="96">
   <properties>
    <property name="Flavor" value="A server that lists over 80 restaurant brands and all of their branches across the city. Zooming out, you see it actually has more restaurants branching in way more areas than you thought."/>
   </properties>
  </object>
  <object id="8" name="Restaurant Prog" type="NPC" x="160" y="112">
   <properties>
    <property name="Asset Name" value="prog"/>
    <property name="Dialogue Type" value="first"/>
    <property name="Direction" value="Up Right"/>
    <property name="Text 1" value="I OPERATE THE RESTAURANT LIST FOR THE WHOLE AREA. WE ARE ALSO TAKING SUGGESTIONS FOR CYBER-RESTAURANTS FOR NETNAVIS WITH A DESIRE TO EXPERIENCE LUXURY MEALS."/>
    <property name="Wait Time" type="int" value="3"/>
   </properties>
   <point/>
  </object>
 </objectgroup>
 <layer id="3" name="Tile Layer 2" width="10" height="10" offsetx="0" offsety="-16">
  <data encoding="csv">
0,0,0,0,0,0,0,0,0,0,
0,0,0,0,0,0,0,0,0,0,
0,0,0,0,0,0,0,0,0,0,
0,0,0,0,0,0,0,0,0,0,
0,0,0,0,0,0,0,0,0,0,
0,0,0,0,0,0,0,0,0,0,
0,0,0,0,0,0,0,0,0,0,
0,0,0,0,0,0,0,0,0,0,
0,0,0,0,0,0,0,0,0,0,
0,0,0,0,0,0,0,0,0,0
</data>
 </layer>
 <objectgroup id="4" name="Object Layer 2" offsetx="0" offsety="-16">
  <object id="5" gid="7" x="128" y="32" width="128" height="96"/>
 </objectgroup>
</map>
