<?xml version="1.0" encoding="UTF-8"?>
<map version="1.8" tiledversion="1.8.5" orientation="isometric" renderorder="right-down" width="10" height="10" tilewidth="64" tileheight="32" infinite="0" nextlayerid="3" nextobjectid="5">
 <properties>
  <property name="Background" value="custom"/>
  <property name="Background Animation" value="/server/assets/bg/bg_cyber.animation"/>
  <property name="Background Texture" value="/server/assets/bg/bg_cyber.png"/>
  <property name="Background Vel X" type="float" value="0.64"/>
  <property name="Background Vel Y" type="float" value="0.32"/>
  <property name="Name" value="YouTube HP"/>
 </properties>
 <tileset firstgid="1" source="../assets/tiles/Artificial sun.tsx"/>
 <tileset firstgid="10" source="../assets/tiles/ONB teleport template.tsx"/>
 <tileset firstgid="274" source="../assets/tiles/Flat terminal.tsx"/>
 <layer id="1" name="Tile Layer 1" width="10" height="10">
  <data encoding="csv">
278,2147483922,2147483922,2147483923,2147483923,2147483923,2147483923,2147483922,2147483922,2147483922,
274,276,276,277,277,277,277,276,276,276,
274,276,276,277,277,277,277,276,276,276,
274,276,276,277,277,277,277,276,276,276,
274,276,276,276,276,276,276,276,276,276,
274,276,276,276,276,276,276,276,276,276,
274,276,276,276,276,276,276,276,276,276,
274,276,276,276,276,276,276,276,276,276,
274,276,276,276,277,277,276,276,276,276,
274,276,276,276,277,277,276,276,276,276
</data>
 </layer>
 <objectgroup id="2" name="Object Layer 1">
  <object id="1" gid="1" x="160" y="64" width="128" height="96"/>
  <object id="2" gid="7" x="112" y="16" width="128" height="96"/>
  <object id="4" gid="17" x="144" y="272" width="64" height="32"/>
 </objectgroup>
</map>
