<?xml version="1.0" encoding="UTF-8"?>
<map version="1.8" tiledversion="1.8.5" orientation="isometric" renderorder="right-down" width="10" height="10" tilewidth="64" tileheight="32" infinite="0" nextlayerid="5" nextobjectid="9">
 <properties>
  <property name="Background" value="custom"/>
  <property name="Background Animation" value="/server/assets/bg/bg_cyber.animation"/>
  <property name="Background Texture" value="/server/assets/bg/bg_cyber.png"/>
  <property name="Background Vel X" type="float" value="0.64"/>
  <property name="Background Vel Y" type="float" value="0.32"/>
  <property name="Name" value="SaniPlant HP"/>
 </properties>
 <tileset firstgid="1" source="../assets/tiles/Artificial sun.tsx"/>
 <tileset firstgid="10" source="../assets/tiles/ONB teleport template.tsx"/>
 <tileset firstgid="274" source="../assets/tiles/Flat terminal.tsx"/>
 <layer id="1" name="Tile Layer 1" width="10" height="10">
  <data encoding="csv">
278,2147483922,2147483922,2147483923,2147483923,2147483923,2147483923,2147483922,2147483922,2147483922,
274,276,276,277,277,277,277,276,276,276,
274,276,276,277,277,277,277,276,276,276,
274,276,276,277,277,277,277,276,276,276,
274,276,276,276,276,276,276,276,276,276,
274,276,276,276,276,276,276,276,276,276,
274,276,276,276,276,276,276,276,276,276,
274,276,276,276,276,276,276,276,276,276,
274,276,276,276,277,277,276,276,276,276,
274,276,276,276,277,277,276,276,276,276
</data>
 </layer>
 <objectgroup id="2" name="Object Layer 1">
  <object id="1" gid="1" x="160" y="64" width="128" height="96">
   <properties>
    <property name="Flavor" value="Simple, streamlined, colorful, organized and cheerful graphics are displayed, meant to represent, in the real world, areas that are filthy, unsanitary, stinky, gross and potentially sickening areas."/>
   </properties>
  </object>
  <object id="7" type="Custom Warp" gid="17" x="144" y="272" width="64" height="32">
   <properties>
    <property name="Direction" value="Up Right"/>
    <property name="Target Area" value="Industrial_hub"/>
    <property name="Target Object" type="int" value="166"/>
   </properties>
  </object>
  <object id="8" name="Cleaning Prog" type="NPC" x="160" y="112">
   <properties>
    <property name="Asset Name" value="prog"/>
    <property name="Dialogue Type" value="first"/>
    <property name="Direction" value="Up Right"/>
    <property name="Text 1" value="I NEED TO REMEMBER ALL SORTS OF WEIRD ACRONYMS AND ICONS FOR ALL SORTS OF CHEMICALS, READER LEVELS, AND PRESSURE LEVELS. SPEAKING OF PRESSURE... HAVE YOU NOTICED THE WATER COLOR BELOW? WE'RE NOT EVEN ALLOWED TO SEND HELP THERE!"/>
    <property name="Wait Time" type="int" value="3"/>
   </properties>
   <point/>
  </object>
 </objectgroup>
 <layer id="4" name="Tile Layer 2" width="10" height="10" offsetx="0" offsety="-16">
  <data encoding="csv">
0,0,0,0,0,0,0,0,0,0,
0,0,0,0,0,0,0,0,0,0,
0,0,0,0,0,0,0,0,0,0,
0,0,0,0,0,0,0,0,0,0,
0,0,0,0,0,0,0,0,0,0,
0,0,0,0,0,0,0,0,0,0,
0,0,0,0,0,0,0,0,0,0,
0,0,0,0,0,0,0,0,0,0,
0,0,0,0,0,0,0,0,0,0,
0,0,0,0,0,0,0,0,0,0
</data>
 </layer>
 <objectgroup id="3" name="Object Layer 2" offsetx="0" offsety="-16">
  <object id="6" gid="7" x="128" y="32" width="128" height="96"/>
 </objectgroup>
</map>
