<?xml version="1.0" encoding="UTF-8"?>
<map version="1.8" tiledversion="1.8.5" orientation="isometric" renderorder="right-down" width="32" height="32" tilewidth="64" tileheight="32" infinite="0" nextlayerid="2" nextobjectid="1">
 <tileset firstgid="1" source="../../../../Desktop/games/Open Netbattle/Release/resources/ow/tiles/floor tile net 1.tsx"/>
 <layer id="1" name="Tile Layer 1" width="32" height="32">
  <data encoding="csv">
0,0,0,0,0,0,0,0,0,0,0,0,0,0,0,0,0,0,0,0,0,0,0,0,0,0,0,0,0,0,0,0,
0,36,27,27,18,18,18,18,18,18,18,18,18,18,18,18,18,18,18,18,18,18,18,18,18,27,0,36,27,27,0,0,
0,30,33,33,0,20,0,0,0,0,0,0,0,0,0,0,0,0,0,0,0,0,0,0,0,31,0,30,33,33,0,0,
0,30,33,33,0,17,18,18,18,18,18,18,18,18,18,18,18,18,18,18,18,18,18,18,18,16,18,33,33,33,0,0,
0,0,17,0,0,17,0,0,0,0,0,0,0,0,0,0,0,0,0,0,0,0,0,0,0,17,0,0,17,0,0,0,
0,0,17,0,0,17,13,13,13,13,13,0,0,0,0,0,0,0,0,0,0,0,0,0,0,17,0,0,17,0,0,0,
0,0,17,0,0,17,0,3,8,5,0,0,0,0,0,0,0,0,0,0,0,3,8,5,0,17,0,0,17,0,0,0,
0,0,17,0,0,17,18,2147483655,14,9,32,32,15,18,18,18,18,18,18,19,19,2147483655,14,9,18,16,0,0,17,0,0,0,
0,0,17,0,0,0,0,2147483653,2147483657,6,0,0,17,0,0,17,0,0,17,0,0,2147483653,2147483657,6,0,0,0,0,17,0,0,0,
0,0,17,0,0,0,0,0,0,0,0,3,7,5,0,17,0,3,7,5,0,0,0,0,0,0,0,0,17,0,0,0,
0,0,17,0,0,0,0,0,0,0,0,2147483653,2147483657,6,0,17,0,2147483653,2147483657,6,0,0,0,0,0,0,0,0,17,0,0,0,
3,8,7,8,5,0,0,0,0,0,0,0,0,0,0,17,0,0,0,0,0,0,0,0,0,0,3,8,7,8,5,0,
2147483656,12,2147483657,2147483659,9,0,0,0,0,0,0,0,0,0,3,7,5,0,0,0,0,0,0,0,0,0,2147483656,12,2147483657,2147483659,9,0,
2147483656,9,2147483657,2147483655,11,8,8,8,8,5,0,0,0,0,2147483656,14,9,0,0,0,0,3,8,8,8,8,10,9,2147483657,2147483655,9,0,
2147483656,9,7,2147483655,12,2147483657,2147483657,2147483657,2147483659,9,0,0,0,0,2147483653,2147483657,6,0,0,0,0,2147483656,12,2147483657,2147483657,2147483657,2147483659,9,7,2147483655,9,0,
2147483656,11,7,10,9,0,0,0,2147483656,9,0,0,0,0,0,17,0,0,0,0,0,2147483656,9,0,0,0,2147483656,11,7,10,9,0,
2147483653,2147483657,2147483657,2147483657,6,0,0,0,2147483656,9,0,0,0,0,0,17,0,0,0,0,0,2147483656,9,0,0,0,2147483653,2147483657,2147483657,2147483657,6,0,
0,0,0,0,0,0,0,0,2147483656,9,0,0,0,0,0,17,0,0,0,0,0,2147483656,9,0,0,0,0,0,0,0,0,0,
0,0,0,0,0,0,0,0,2147483656,9,2147483650,5,8,8,8,7,8,8,8,2147483650,5,2147483655,9,0,0,0,0,0,0,0,0,0,
0,0,0,0,0,0,0,0,2147483656,9,2147483652,6,2147483659,12,2147483659,14,12,2147483659,12,2147483652,6,2147483655,9,0,0,0,0,0,0,0,0,0,
0,0,0,0,0,0,0,0,2147483656,9,2147483655,11,1,4,10,14,11,1,4,10,9,2147483655,9,0,0,0,0,0,0,0,0,0,
0,0,0,0,0,0,0,0,2147483656,9,2147483655,12,2147483652,6,2147483659,14,12,2147483652,6,2147483659,9,2147483655,9,0,0,0,0,0,0,0,0,0,
0,0,0,0,0,0,0,0,2147483656,9,1,4,10,11,1,7,4,10,11,1,4,2147483655,9,0,0,0,0,0,0,0,0,0,
0,0,0,0,0,0,0,0,2147483653,6,2147483652,6,2147483657,2147483657,2147483652,2147483657,6,2147483657,2147483657,2147483652,6,2147483652,6,0,0,0,0,0,0,0,0,0,
0,0,0,0,0,0,0,0,0,0,0,0,0,0,0,0,0,0,0,0,0,0,0,0,0,0,0,0,0,0,0,0,
0,0,0,0,0,0,0,0,0,0,0,0,0,0,0,0,0,0,0,0,0,0,0,0,0,0,0,0,0,0,0,0,
0,0,0,0,0,0,0,0,0,0,0,0,0,0,0,0,0,0,0,0,0,0,0,0,0,0,0,0,0,0,0,0,
0,0,0,0,0,0,0,0,0,0,0,0,0,0,0,0,0,0,0,0,0,0,0,0,0,0,0,0,0,0,0,0,
0,0,0,0,0,0,0,0,0,0,0,0,0,0,0,0,0,0,0,0,0,0,0,0,0,0,0,0,0,0,0,0,
0,0,0,0,0,0,0,0,0,0,0,0,0,0,0,0,0,0,0,0,0,0,0,0,0,0,0,0,0,0,0,0,
0,0,0,0,0,0,0,0,0,0,0,0,0,0,0,0,0,0,0,0,0,0,0,0,0,0,0,0,0,0,0,0,
0,0,0,0,0,0,0,0,0,0,0,0,0,0,0,0,0,0,0,0,0,0,0,0,0,0,0,0,0,0,0,0
</data>
 </layer>
</map>
