<?xml version="1.0" encoding="UTF-8"?>
<map version="1.8" tiledversion="1.8.5" orientation="isometric" renderorder="right-down" width="48" height="48" tilewidth="64" tileheight="32" infinite="0" nextlayerid="3" nextobjectid="5">
 <properties>
  <property name="Background" value="custom"/>
  <property name="Background Animation" value="/server/assets/bg/static.animation"/>
  <property name="Background Texture" value="/server/assets/bg/static.png"/>
  <property name="Background Vel X" type="float" value="0"/>
  <property name="Background Vel Y" type="float" value="0"/>
  <property name="Name" value="Undernet 1"/>
  <property name="Song" value="/server/assets/music/his_domain_1.ogg"/>
 </properties>
 <tileset firstgid="1" source="../assets/tiles/Cyberworld arrows.tsx"/>
 <tileset firstgid="25" source="../assets/tiles/ONB Undernet 1.tsx"/>
 <tileset firstgid="49" source="../../../../Desktop/games/Open Netbattle/Release/resources/ow/tiles/Templates.tsx"/>
 <tileset firstgid="93" source="../../../../Desktop/games/Open Netbattle/Release/resources/ow/tiles/Clouds.tsx"/>
 <layer id="1" name="Tile Layer 1" width="48" height="48">
  <data encoding="csv">
38,40,42,0,0,25,26,26,26,0,38,42,0,0,0,0,0,0,0,0,0,25,26,26,31,26,26,0,0,0,0,0,0,0,2147483674,0,0,0,25,26,33,26,26,26,26,31,26,0,
2147483688,47,44,0,0,2147483674,0,0,2147483674,0,2147483688,44,26,26,0,0,0,0,0,0,0,2147483674,0,0,0,0,2147483674,0,0,0,0,0,0,0,2147483674,0,0,0,2147483674,0,0,0,0,0,0,0,2147483674,0,
2147483690,2147483692,43,0,0,2147483674,0,0,2147483674,0,2147483690,43,0,2147483674,26,26,26,31,26,26,26,33,26,0,0,0,2147483674,26,26,26,26,0,0,0,2147483674,0,0,0,2147483674,0,38,40,42,0,0,0,2147483674,0,
0,2147483674,0,0,0,2147483674,0,0,2147483674,0,0,0,0,0,0,0,0,0,0,0,0,0,0,0,0,0,0,0,0,0,2147483679,0,0,38,41,42,0,0,2147483674,0,2147483688,47,44,0,0,0,2147483674,0,
0,2147483674,0,0,0,2147483674,26,26,27,26,26,26,26,26,26,33,26,26,26,26,26,31,26,26,26,26,33,26,26,0,2147483674,0,0,2147483688,47,44,0,0,2147483674,0,2147483690,2147483692,43,0,0,0,2147483674,0,
0,2147483674,0,0,0,0,0,0,2147483674,0,0,0,0,0,2147483674,0,0,0,0,0,0,0,0,0,0,0,0,0,2147483674,0,2147483674,0,0,2147483690,2147483692,43,0,0,2147483674,0,0,2147483674,0,0,0,0,2147483674,0,
0,2147483674,26,31,26,26,26,26,27,0,0,0,0,0,2147483674,0,38,40,42,0,0,0,0,0,38,40,42,0,2147483674,0,2147483674,0,0,0,49,0,0,0,2147483674,0,0,2147483674,0,0,0,0,2147483674,0,
0,49,0,0,0,0,0,0,0,0,0,0,0,0,2147483679,0,2147483688,47,44,26,26,31,26,26,2147483689,47,44,0,2147483674,0,2147483674,26,26,26,26,26,26,26,27,0,0,2147483674,0,0,0,0,2147483674,0,
0,49,0,0,0,0,0,0,0,0,38,40,42,0,2147483674,0,2147483690,2147483692,43,0,0,0,0,0,2147483690,2147483692,43,0,2147483674,0,2147483674,0,0,0,0,0,0,0,0,0,0,2147483674,0,0,0,0,2147483674,0,
38,40,42,0,0,0,0,0,0,0,2147483688,47,44,0,2147483674,0,0,0,0,0,0,0,0,0,0,2147483674,0,0,2147483674,0,2147483674,0,2147483676,0,38,40,42,0,0,0,0,2147483674,0,0,0,0,2147483674,0,
2147483688,47,44,0,0,0,0,0,0,0,2147483690,2147483692,43,0,2147483674,0,0,0,0,0,38,40,42,0,0,2147483674,0,0,2147483674,0,2147483674,0,2147483674,0,2147483688,47,44,0,0,0,0,2147483674,0,0,0,0,2147483674,0,
2147483690,2147483692,43,0,0,0,0,0,0,0,0,2147483674,0,0,2147483674,0,0,26,26,26,2147483689,47,44,0,0,2147483681,0,0,2147483674,0,2147483674,0,2147483674,0,2147483690,2147483692,43,0,0,0,38,41,42,0,0,0,2147483674,0,
0,2147483674,0,0,0,0,0,25,26,31,26,27,0,0,2147483674,0,0,2147483681,0,0,2147483690,2147483692,43,0,0,2147483674,0,0,2147483674,0,2147483674,0,2147483674,0,0,2147483674,0,0,0,0,2147483688,47,44,26,26,33,27,0,
0,2147483674,0,0,0,0,0,2147483674,0,0,0,0,0,0,2147483679,0,0,2147483674,0,0,0,0,0,0,0,2147483674,0,0,2147483674,0,2147483674,0,2147483674,0,0,2147483674,26,0,0,0,2147483690,2147483692,43,0,0,0,0,0,
0,2147483679,0,0,0,0,0,2147483681,0,0,0,0,0,0,2147483674,0,0,2147483674,0,0,0,0,0,0,0,2147483674,0,0,2147483674,0,2147483674,0,2147483674,0,0,0,2147483674,0,0,0,0,0,0,0,0,0,0,0,
0,2147483674,0,0,0,0,0,2147483674,0,25,26,26,26,33,27,0,38,41,42,0,0,0,0,0,38,41,42,0,2147483674,0,2147483674,0,2147483681,0,0,0,2147483674,0,0,0,0,0,0,25,0,0,0,0,
0,2147483674,0,0,0,0,0,2147483674,0,2147483674,0,0,0,0,0,0,2147483688,47,44,26,26,31,26,26,2147483689,47,44,0,2147483674,0,2147483674,0,2147483674,26,0,0,2147483674,0,0,0,0,0,0,2147483674,0,0,0,0,
0,2147483681,0,0,0,0,0,2147483674,0,2147483674,0,38,40,42,0,0,2147483690,2147483692,43,0,0,0,0,0,2147483690,2147483692,43,0,2147483674,0,2147483674,0,0,2147483674,0,0,2147483674,0,0,0,0,0,38,41,42,0,0,0,
0,2147483674,0,0,0,0,0,2147483674,0,2147483674,0,2147483688,47,44,0,0,0,0,0,0,0,0,0,0,0,49,0,0,2147483674,0,2147483674,0,0,2147483674,0,0,2147483674,26,26,26,26,26,2147483689,47,44,26,33,26,
0,2147483674,0,0,0,0,0,2147483674,0,2147483674,0,2147483690,2147483692,43,0,25,0,0,38,42,0,0,0,0,38,40,42,0,2147483674,0,2147483679,0,0,2147483674,0,0,2147483674,0,0,0,0,0,2147483690,2147483692,43,0,0,0,
0,2147483674,0,0,0,0,0,2147483674,0,2147483674,0,0,2147483674,0,0,2147483681,0,0,2147483688,44,26,26,26,26,2147483689,47,44,0,2147483674,0,2147483674,0,0,2147483674,0,0,2147483674,0,0,0,0,0,0,2147483674,0,0,0,0,
0,2147483674,26,26,0,0,0,2147483674,0,2147483674,0,0,2147483674,0,25,27,26,0,2147483690,43,0,0,0,0,2147483690,2147483692,43,0,2147483674,0,2147483674,0,0,2147483674,26,26,27,0,0,25,26,26,26,27,0,0,0,0,
0,2147483694,0,2147483674,0,0,0,2147483674,0,2147483681,0,0,2147483674,0,2147483674,0,2147483674,0,0,0,0,0,0,0,0,2147483674,0,0,2147483674,0,2147483674,0,0,0,0,0,0,0,0,2147483674,0,0,0,0,0,0,0,0,
0,2147483674,0,2147483674,26,33,26,27,0,2147483674,0,0,2147483674,0,2147483694,0,2147483674,0,0,0,0,0,0,0,0,2147483674,0,0,2147483674,0,2147483674,0,0,0,0,0,0,0,0,2147483674,0,38,40,40,40,40,40,42,
0,2147483680,0,0,0,0,0,2147483679,0,2147483674,31,26,27,26,27,26,27,26,26,26,26,26,31,26,26,27,26,26,27,49,2147483674,26,26,26,26,26,26,26,26,27,0,2147483688,47,47,47,47,47,44,
0,2147483674,33,26,26,26,26,27,0,0,0,0,0,0,0,0,0,0,0,0,0,0,0,0,0,0,0,0,0,0,0,0,0,0,0,0,0,0,0,0,0,2147483690,2147483692,2147483692,2147483692,2147483692,2147483692,43,
0,2147483681,0,0,0,0,0,2147483674,0,0,0,25,26,26,26,26,26,26,26,26,26,26,0,0,28,26,26,26,32,0,0,0,0,0,0,0,0,38,40,42,0,0,0,0,2147483674,0,0,0,
0,2147483680,0,0,0,0,0,2147483674,0,0,0,2147483674,0,0,0,0,0,0,0,0,0,2147483674,0,0,0,0,0,0,2147483674,0,25,0,0,0,0,0,0,2147483688,47,44,0,0,0,0,2147483674,0,0,0,
0,2147483674,0,0,0,0,0,2147483674,0,0,0,2147483674,0,0,0,0,0,0,0,0,0,2147483674,26,26,26,26,26,0,2147483674,0,2147483674,0,0,0,0,0,0,2147483690,2147483692,43,0,25,26,26,27,0,0,0,
0,2147483674,0,0,25,0,0,2147483680,0,0,0,2147483674,0,0,0,0,0,0,0,0,0,0,0,0,0,0,2147483680,0,2147483674,0,2147483674,0,0,38,40,42,0,0,2147483674,0,0,2147483674,0,0,0,0,0,0,
0,2147483674,0,0,2147483674,0,0,2147483674,0,0,0,2147483674,0,25,26,26,26,26,26,26,26,26,26,26,32,26,30,0,2147483674,0,2147483674,26,26,2147483689,47,44,0,0,2147483674,0,0,2147483674,0,38,42,0,0,0,
0,2147483674,0,0,2147483674,0,0,2147483674,0,0,0,2147483674,0,2147483674,0,2147483674,0,0,0,0,0,0,0,0,0,0,0,0,2147483674,0,2147483674,0,0,2147483690,2147483692,43,0,0,2147483674,0,0,2147483674,0,2147483688,44,26,26,26,
0,2147483674,0,0,2147483674,0,0,2147483674,0,0,0,2147483674,0,2147483674,0,2147483674,26,26,26,26,26,26,26,26,26,26,26,26,2147483678,0,2147483674,0,0,0,0,0,0,0,2147483674,0,0,2147483674,0,2147483690,43,0,0,2147483674,
0,2147483674,0,0,2147483674,0,0,2147483694,0,0,0,2147483674,0,2147483674,0,0,0,2147483680,0,0,0,0,0,0,0,0,0,0,0,0,2147483674,0,0,0,0,0,0,0,2147483674,0,0,2147483674,0,0,0,0,0,2147483674,
0,2147483674,26,26,27,26,26,27,26,26,0,2147483674,0,2147483674,0,0,0,2147483674,26,26,26,26,26,26,26,26,26,26,26,26,30,0,0,0,0,0,0,0,2147483674,0,0,2147483674,0,0,0,0,0,2147483677,
0,2147483674,0,0,2147483674,0,0,2147483694,0,2147483674,0,2147483674,0,2147483674,0,0,0,0,0,0,0,0,0,0,0,0,0,0,0,0,0,0,28,26,26,26,26,26,27,0,37,41,40,42,0,0,0,2147483674,
0,2147483674,0,0,2147483674,0,0,2147483674,0,2147483674,0,2147483674,0,2147483674,0,0,0,0,0,0,0,0,0,0,0,0,0,0,0,0,0,0,2147483674,0,0,0,2147483674,0,0,0,2147483688,47,47,44,0,0,0,2147483674,
0,2147483674,0,0,2147483674,0,0,2147483674,0,2147483674,0,2147483674,0,2147483674,26,26,26,26,26,26,26,26,26,26,0,0,0,0,0,0,0,0,2147483674,0,25,0,2147483677,29,26,26,2147483689,47,47,44,0,0,0,2147483674,
0,2147483674,0,0,2147483680,0,0,2147483674,0,2147483674,0,2147483674,0,0,0,0,0,0,0,0,0,0,0,2147483674,0,25,26,29,26,26,0,0,2147483674,0,2147483674,0,2147483674,0,0,0,2147483690,2147483692,2147483692,43,0,0,0,2147483677,
0,2147483674,0,0,2147483674,0,0,2147483674,0,2147483674,0,2147483674,49,25,26,26,26,26,26,26,26,26,0,2147483674,0,2147483674,0,2147483674,0,2147483674,0,0,2147483674,0,2147483674,0,2147483674,0,0,0,0,0,2147483674,0,0,0,0,2147483681,
0,2147483680,0,0,2147483674,0,0,2147483674,0,2147483674,0,2147483674,0,2147483674,0,0,0,2147483674,0,0,0,2147483674,0,2147483674,0,2147483674,0,2147483674,0,2147483674,0,0,2147483674,0,2147483674,0,2147483674,26,26,30,0,0,2147483677,0,0,0,0,2147483674,
0,2147483694,0,0,2147483674,0,0,2147483674,0,2147483674,0,2147483674,0,2147483680,0,0,0,2147483674,0,0,0,2147483674,0,2147483674,0,2147483674,0,2147483674,0,2147483674,0,0,2147483674,26,27,0,0,0,0,0,0,0,2147483674,0,0,0,0,2147483674,
0,2147483674,26,26,27,26,26,27,0,2147483680,0,2147483674,0,2147483674,0,0,0,2147483674,0,0,0,2147483674,0,2147483674,0,2147483680,0,0,0,49,0,0,0,0,2147483674,0,26,26,26,26,26,26,30,26,26,26,26,27,
0,0,0,0,0,0,0,0,0,2147483674,0,2147483674,0,2147483674,0,0,0,2147483674,0,0,0,38,40,45,0,2147483674,0,0,38,40,40,42,0,0,2147483677,0,2147483674,0,0,0,0,0,2147483674,0,0,0,0,0,
0,0,0,0,0,0,0,0,0,2147483674,49,2147483674,0,2147483674,26,26,46,27,0,0,0,2147483688,47,44,0,2147483674,0,0,2147483688,47,47,44,26,26,27,26,27,0,0,0,0,0,2147483674,0,0,0,0,0,
38,40,42,0,0,0,0,0,0,2147483674,0,0,0,0,0,0,0,2147483674,0,0,0,2147483690,2147483692,43,0,2147483674,0,0,2147483690,2147483692,2147483692,43,0,0,0,0,0,0,0,0,0,0,2147483674,0,0,0,0,0,
2147483688,47,44,26,26,26,26,26,26,27,0,0,0,0,0,0,0,2147483674,0,0,0,0,0,0,0,2147483680,0,0,0,0,0,0,0,0,0,0,0,0,0,0,0,0,2147483674,0,0,0,0,0,
2147483690,2147483692,43,0,0,0,0,0,0,0,0,0,25,26,26,26,26,27,26,26,26,26,26,26,26,27,0,0,0,0,0,0,0,0,0,0,0,0,0,0,0,0,0,0,0,0,0,0
</data>
 </layer>
 <objectgroup id="2" name="Object Layer 1">
  <object id="3" name="To Electopia" type="Radius Warp" x="1360" y="1504">
   <properties>
    <property name="Activation Radius" type="float" value="0.6"/>
    <property name="Arrival Animation" value="arrow_down_left_in"/>
    <property name="Leave Animation" value="arrow_down_left_out"/>
    <property name="Target Area" value="Japan_hub"/>
    <property name="Target Object" value="3"/>
   </properties>
   <point/>
  </object>
 </objectgroup>
</map>
